/* XPM */
static char * digitsw_xpm[] = {
"4 75 2 1",
" 	c None",
".	c #FFFFFF",
" ...",
" . .",
" . .",
" . .",
" ...",
" .. ",
"  . ",
"  . ",
"  . ",
" ...",
" ...",
"   .",
" ...",
" .  ",
" ...",
" ...",
"   .",
"  . ",
"   .",
" ...",
"  ..",
"  ..",
" . .",
" ...",
"   .",
" ...",
" .  ",
" ...",
"   .",
" ...",
"  ..",
" .  ",
" ...",
" . .",
" ...",
" ...",
"   .",
"   .",
"  . ",
"  . ",
" ...",
" . .",
"  . ",
" . .",
" ...",
" ...",
" . .",
" ...",
"   .",
" .. ",
"    ",
"  . ",
"    ",
"  . ",
"    ",
"    ",
"    ",
" ...",
"    ",
"    ",
" ...",
" . .",
" ...",
" . .",
" . .",
" ...",
" . .",
" ...",
" .  ",
" .  ",
"    ",
"    ",
"    ",
"    ",
"    "};
