/* XPM */
static char * digitsy_xpm[] = {
"7 165 10 1",
".	c None",
"+	c #719D92",
"@	c #AABD72",
"#	c #8DAC82",
"$	c #1C6EC2",
"%	c #FFEC42",
"&	c #E2DB52",
"*	c #558EA2",
"=	c #387DB2",
"-	c #C6CC62",
"..+@#$.",
".@%@&&.",
"*%+.=%*",
"@%...%@",
"@%...%@",
"@%...%@",
"+%=.=%+",
"$%@*@&$",
".*&%&=.",
".......",
".......",
"...$+..",
"..*&@..",
".#&%@..",
".*.%@..",
"...%@..",
"...%@..",
"...%@..",
"...%@..",
"...%@..",
".......",
".......",
"..+@#$.",
".+%@&%$",
".$*.*%*",
"....#%$",
"...$%-.",
"...@%$.",
"..*%+..",
".$&&***",
".#%%%%%",
".......",
".......",
"..=@@*.",
".=%@-%+",
"..$..%@",
"...=+%*",
"...@%&*",
"....$&&",
"..$..@%",
".+-*+%-",
".$-%%@$",
".......",
".......",
"....*=.",
"...*%*.",
"..=%%*.",
".$&@%*.",
"$&**%*.",
"@&@-%-=",
"@@@-%-=",
"...*%*.",
"...*%*.",
".......",
".......",
".=@@@@=",
".*%-@@=",
".*%*...",
".*%%%@.",
".=-*@%+",
".....%@",
".....%@",
".=-*@%*",
".*&%&#.",
".......",
".......",
"...+*..",
"..@%@..",
".+%@...",
".&&*=..",
"*%%%%@.",
"*%@.@%=",
"*%*.*%*",
".&&*&%$",
".=-%&*.",
".......",
".......",
"+@@@@@=",
"+@@@&%$",
"...$%#.",
"...#%$.",
"..$%#..",
"..#%$..",
".$%#...",
".+%=...",
".&-....",
".......",
".......",
"..+@@=.",
".+%-&%$",
".@%.*%*",
".*%@-&.",
".$&%%#.",
".-&$@%*",
".%@..%@",
".&%+@%+",
".$-%%#.",
".......",
".......",
".$#@+..",
".&%@%-.",
"*%+.+%=",
"*%+.+%*",
".&%@%%*",
".$#@%%.",
"...*%#.",
"..#%@..",
".$&#...",
".......",
".......",
".......",
".......",
"...*...",
"..*%*..",
"...*...",
".......",
".......",
"..$@$..",
"..=%=..",
".......",
".......",
".......",
".......",
".......",
".......",
".......",
"..@%%*.",
"..=**$.",
".......",
".......",
".......",
".......",
".......",
".......",
"..**=..",
".=%%%@.",
"..$.+%=",
".$-%%%*",
".&&*#%*",
".%&*@%*",
".*%%@%@",
".......",
".......",
".......",
".......",
"=*=*=..",
"@%%%%@.",
"@%$.@%$",
"@%..*%*",
"@%..+%*",
"@%+*&&.",
"@%&%-=.",
"@%.....",
"@%.....",
".......",
".......",
".......",
".......",
".......",
".......",
".......",
".......",
".......",
".......",
"......."};
