/* XPM */
static char * moon_xpm[] = {
"8 488 630 2",
"  	c None",
". 	c #0C0B0C",
"+ 	c #0D0C0C",
"@ 	c #100F0F",
"# 	c #090809",
"$ 	c #0C0B0B",
"% 	c #0B0A0B",
"& 	c #0A090A",
"* 	c #100F10",
"= 	c #0F0E0E",
"- 	c #100F0E",
"; 	c #121110",
"> 	c #111010",
", 	c #141312",
"' 	c #131212",
") 	c #121111",
"! 	c #0B0A0A",
"~ 	c #0E0D0E",
"{ 	c #11100F",
"] 	c #151413",
"^ 	c #111011",
"/ 	c #090808",
"( 	c #0A0909",
"_ 	c #10100F",
": 	c #0E0E10",
"< 	c #0E0E0F",
"[ 	c #141313",
"} 	c #0E0D0F",
"| 	c #171717",
"1 	c #0E0D0D",
"2 	c #212121",
"3 	c #131213",
"4 	c #121112",
"5 	c #171719",
"6 	c #141314",
"7 	c #222121",
"8 	c #353536",
"9 	c #1C1B1B",
"0 	c #232324",
"a 	c #191819",
"b 	c #323131",
"c 	c #4B4B4B",
"d 	c #0D0C0D",
"e 	c #2C2B2C",
"f 	c #181716",
"g 	c #333334",
"h 	c #0A0A0A",
"i 	c #242324",
"j 	c #4A494B",
"k 	c #171618",
"l 	c #151415",
"m 	c #575756",
"n 	c #4B4A4B",
"o 	c #1E1D1C",
"p 	c #313131",
"q 	c #080808",
"r 	c #686768",
"s 	c #363637",
"t 	c #2D2C2D",
"u 	c #555554",
"v 	c #6A6A6A",
"w 	c #272726",
"x 	c #525253",
"y 	c #0C0B0D",
"z 	c #474748",
"A 	c #8B8B8C",
"B 	c #575658",
"C 	c #484749",
"D 	c #555555",
"E 	c #8F8F8F",
"F 	c #3B3A3B",
"G 	c #0F0E0F",
"H 	c #646364",
"I 	c #A8A8A8",
"J 	c #6F6F70",
"K 	c #6D6C6E",
"L 	c #565656",
"M 	c #161515",
"N 	c #B0B0AF",
"O 	c #5D5C5D",
"P 	c #131313",
"Q 	c #7E7E7F",
"R 	c #373638",
"S 	c #A9A9A9",
"T 	c #161516",
"U 	c #79797B",
"V 	c #848485",
"W 	c #3C3B3B",
"X 	c #B0B0B0",
"Y 	c #131211",
"Z 	c #7F7F7F",
"` 	c #959696",
" .	c #4F4E50",
"..	c #ABACAB",
"+.	c #2B2A2E",
"@.	c #7C7C7D",
"#.	c #484747",
"$.	c #868687",
"%.	c #575656",
"&.	c #6B6B6B",
"*.	c #B3B3B2",
"=.	c #A4A4A3",
"-.	c #5D5D5D",
";.	c #A2A2A3",
">.	c #6A6A6B",
",.	c #ADADAD",
"'.	c #424246",
").	c #7C7C7E",
"!.	c #7B7B7B",
"~.	c #898989",
"{.	c #565655",
"].	c #9E9E9E",
"^.	c #B5B5B5",
"/.	c #BBBCBB",
"(.	c #424242",
"_.	c #1C1B1D",
":.	c #717173",
"<.	c #ADAEAE",
"[.	c #1E1E1E",
"}.	c #58585A",
"|.	c #7D7D7E",
"1.	c #252424",
"2.	c #9C9C9B",
"3.	c #8A8A8B",
"4.	c #2F2F2F",
"5.	c #B6B6B5",
"6.	c #4E4E4D",
"7.	c #BBBBBB",
"8.	c #5E5F5E",
"9.	c #646464",
"0.	c #A4A4A4",
"a.	c #737374",
"b.	c #AFAFAF",
"c.	c #474647",
"d.	c #58585B",
"e.	c #7E7F80",
"f.	c #5A5A5A",
"g.	c #9E9E9D",
"h.	c #8C8C8C",
"i.	c #636263",
"j.	c #B4B4B3",
"k.	c #B8B8B7",
"l.	c #7A7A7A",
"m.	c #BDBEBD",
"n.	c #858585",
"o.	c #A5A5A5",
"p.	c #5D5D5E",
"q.	c #747476",
"r.	c #6B6B6C",
"s.	c #5A5A5D",
"t.	c #7F7F81",
"u.	c #A1A0A0",
"v.	c #8D8D8C",
"w.	c #9B9B9B",
"x.	c #B6B7B6",
"y.	c #BFBFBE",
"z.	c #161617",
"A.	c #A6A6A6",
"B.	c #1F1E1E",
"C.	c #6E6E6F",
"D.	c #767678",
"E.	c #AFAFB0",
"F.	c #201F20",
"G.	c #5B5B5D",
"H.	c #808081",
"I.	c #2A2A2B",
"J.	c #A3A3A3",
"K.	c #A4A3A3",
"L.	c #8D8D8E",
"M.	c #545454",
"N.	c #2C2B2B",
"O.	c #B3B3B3",
"P.	c #B9B9B9",
"Q.	c #B8B8B8",
"R.	c #2A2A2A",
"S.	c #C5C5C5",
"T.	c #C0C0BF",
"U.	c #333333",
"V.	c #99999A",
"W.	c #A7A7A7",
"X.	c #3B3A3C",
"Y.	c #717172",
"Z.	c #777779",
"`.	c #3F3F42",
" +	c #5D5D5F",
".+	c #7F7F80",
"++	c #535354",
"@+	c #A7A7A6",
"#+	c #8E8E8E",
"$+	c #555454",
"%+	c #B7B7B6",
"&+	c #BABAB9",
"*+	c #5E5E5D",
"=+	c #C4C4C4",
"-+	c #C1C2C1",
";+	c #4C4C4D",
">+	c #9C9C9C",
",+	c #A7A8A7",
"'+	c #565659",
")+	c #727274",
"!+	c #B1B1B1",
"~+	c #666668",
"{+	c #828283",
"]+	c #5E5E60",
"^+	c #79797A",
"/+	c #AAAAAA",
"(+	c #A9A9A8",
"_+	c #8D8D8D",
":+	c #545453",
"<+	c #757576",
"[+	c #C7C7C6",
"}+	c #C2C2C2",
"|+	c #60605F",
"1+	c #626164",
"2+	c #9D9D9D",
"3+	c #666669",
"4+	c #737375",
"5+	c #2F2E2F",
"6+	c #6C6C6D",
"7+	c #838384",
"8+	c #5F5F61",
"9+	c #222124",
"0+	c #818081",
"a+	c #AEAEAD",
"b+	c #AAAAA9",
"c+	c #535352",
"d+	c #1B1A1B",
"e+	c #88888A",
"f+	c #BDBDBC",
"g+	c #B9B9B8",
"h+	c #C9C9C8",
"i+	c #C3C3C3",
"j+	c #5E5F5F",
"k+	c #616161",
"l+	c #111111",
"m+	c #9F9F9F",
"n+	c #A7A7A8",
"o+	c #2B2B2D",
"p+	c #67676A",
"q+	c #757476",
"r+	c #545354",
"s+	c #6F6E70",
"t+	c #5F5F62",
"u+	c #7E7E80",
"v+	c #3E3E40",
"w+	c #838383",
"x+	c #ACACAA",
"y+	c #3B3B3B",
"z+	c #898A8B",
"A+	c #BEBEBE",
"B+	c #202020",
"C+	c #CDCDCC",
"D+	c #CBCBCB",
"E+	c #222223",
"F+	c #A0A09F",
"G+	c #434346",
"H+	c #68686B",
"I+	c #767677",
"J+	c #78787A",
"K+	c #717171",
"L+	c #878787",
"M+	c #606062",
"N+	c #868685",
"O+	c #ACACAB",
"P+	c #8B8B8B",
"Q+	c #525251",
"R+	c #585859",
"S+	c #3E3E3E",
"T+	c #D3D3D2",
"U+	c #CCCCCC",
"V+	c #393839",
"W+	c #A0A1A1",
"X+	c #A8A9A8",
"Y+	c #59595D",
"Z+	c #69696C",
"`+	c #78797B",
" @	c #1A191A",
".@	c #7E7E7D",
"+@	c #737273",
"@@	c #888888",
"#@	c #606063",
"$@	c #171617",
"%@	c #888887",
"&@	c #B5B5B4",
"*@	c #ADADAC",
"=@	c #8A8A8A",
"-@	c #6E6E6E",
";@	c #C1C1C0",
">@	c #BFBEBE",
",@	c #5E5D5E",
"'@	c #D4D4D3",
")@	c #626262",
"!@	c #4F4F4F",
"~@	c #A0A1A2",
"{@	c #6B6B6E",
"]@	c #777778",
"^@	c #7A7A7B",
"/@	c #AEAEAF",
"(@	c #2C2B2D",
"_@	c #818080",
":@	c #747475",
"<@	c #2A2A2D",
"[@	c #898988",
"}@	c #ADADAB",
"|@	c #525252",
"1@	c #2B2A2A",
"2@	c #8E8E8F",
"3@	c #C2C2C1",
"4@	c #C0BFBF",
"5@	c #787877",
"6@	c #D5D5D3",
"7@	c #CECECE",
"8@	c #C4C3C3",
"9@	c #616060",
"0@	c #A2A2A2",
"a@	c #2D2C2E",
"b@	c #606064",
"c@	c #6C6C6E",
"d@	c #AEADAD",
"e@	c #3B3B3D",
"f@	c #838282",
"g@	c #8C8C8B",
"h@	c #7B7B7D",
"i@	c #3C3C3E",
"j@	c #494949",
"k@	c #747374",
"l@	c #8F8F90",
"m@	c #C2C3C2",
"n@	c #BFBFBF",
"o@	c #D7D7D5",
"p@	c #CFCFCF",
"q@	c #C4C4C3",
"r@	c #7B7C7E",
"s@	c #3A393B",
"t@	c #6D6D70",
"u@	c #787879",
"v@	c #49494B",
"w@	c #4D4D4F",
"x@	c #636365",
"y@	c #515150",
"z@	c #666666",
"A@	c #757475",
"B@	c #BEBEBD",
"C@	c #999998",
"D@	c #D7D8D6",
"E@	c #CFCFCE",
"F@	c #464647",
"G@	c #616165",
"H@	c #6D6D6F",
"I@	c #848383",
"J@	c #7A7A7C",
"K@	c #616163",
"L@	c #646466",
"M@	c #BBBBBA",
"N@	c #818180",
"O@	c #767676",
"P@	c #919191",
"Q@	c #A0A1A0",
"R@	c #D9D9D7",
"S@	c #CFD0CF",
"T@	c #7C7C7C",
"U@	c #A3A3A2",
"V@	c #515154",
"W@	c #626265",
"X@	c #ACACAC",
"Y@	c #545457",
"Z@	c #868585",
"`@	c #606163",
" #	c #656566",
".#	c #90908F",
"+#	c #ABABA9",
"@#	c #858586",
"##	c #505050",
"$#	c #979796",
"%#	c #777777",
"&#	c #919192",
"*#	c #C5C5C4",
"=#	c #DADAD8",
"-#	c #D0D0CF",
";#	c #C2C3C3",
">#	c #7D7D7F",
",#	c #A2A3A3",
"'#	c #636366",
")#	c #6F6F71",
"!#	c #ABABAB",
"~#	c #535357",
"{#	c #8E8E8D",
"]#	c #666667",
"^#	c #929291",
"/#	c #50504F",
"(#	c #A1A19F",
"_#	c #939393",
":#	c #BCBCBB",
"<#	c #B2B2B1",
"[#	c #D9D9D8",
"}#	c #818182",
"|#	c #636367",
"1#	c #6F6F72",
"2#	c #77777A",
"3#	c #545558",
"4#	c #5C5C5F",
"5#	c #5F6062",
"6#	c #939391",
"7#	c #BBBCBA",
"8#	c #838385",
"9#	c #4F4F4E",
"0#	c #A6A6A4",
"a#	c #C6C6C5",
"b#	c #828383",
"c#	c #A6A6A5",
"d#	c #646467",
"e#	c #555558",
"f#	c #5B5C5E",
"g#	c #676668",
"h#	c #949493",
"i#	c #BABBBA",
"j#	c #4D4E4D",
"k#	c #797979",
"l#	c #949495",
"m#	c #BABABA",
"n#	c #ABABAA",
"o#	c #DADBD9",
"p#	c #5C5C5D",
"q#	c #808080",
"r#	c #A5A6A5",
"s#	c #A8A8A9",
"t#	c #676769",
"u#	c #B9BAB9",
"v#	c #A5A5A4",
"w#	c #4A4A4A",
"x#	c #AAAAA8",
"y#	c #959595",
"z#	c #AEAEAE",
"A#	c #DBDBD9",
"B#	c #C0C0C0",
"C#	c #595959",
"D#	c #838484",
"E#	c #A1A2A2",
"F#	c #656568",
"G#	c #706F72",
"H#	c #757577",
"I#	c #555559",
"J#	c #8B8B8A",
"K#	c #5B5B5E",
"L#	c #626264",
"M#	c #69696B",
"N#	c #959594",
"O#	c #ADACAB",
"P#	c #DBDCDA",
"Q#	c #A1A1A1",
"R#	c #A0A0A0",
"S#	c #5F6063",
"T#	c #747477",
"U#	c #555659",
"V#	c #8A898A",
"W#	c #6A6A6C",
"X#	c #A1A1A0",
"Y#	c #A8A8A6",
"Z#	c #ADAEAD",
"`#	c #DBDBDA",
" $	c #4E4D4D",
".$	c #606061",
"+$	c #9B9C9C",
"@$	c #888889",
"#$	c #5A5A5C",
"$$	c #6B6B6D",
"%$	c #212122",
"&$	c #7B7B7C",
"*$	c #C0C1C0",
"=$	c #B5B6B5",
"-$	c #CECDCD",
";$	c #3F3F3F",
">$	c #5F6060",
",$	c #848484",
"'$	c #57575B",
")$	c #8F8F8E",
"!$	c #7D7D7D",
"~$	c #878788",
"{$	c #59595B",
"]$	c #818181",
"^$	c #AFAFAE",
"/$	c #959494",
"($	c #868686",
"_$	c #B6B6B6",
":$	c #2E2E2E",
"<$	c #5E5E5E",
"[$	c #848585",
"}$	c #8B8A8A",
"|$	c #616164",
"1$	c #57575A",
"2$	c #575759",
"3$	c #656567",
"4$	c #B0B1B0",
"5$	c #9E9D9C",
"6$	c #AEAEAC",
"7$	c #696969",
"8$	c #1D1C1D",
"9$	c #626263",
"0$	c #6E6E71",
"a$	c #707072",
"b$	c #454545",
"c$	c #57585B",
"d$	c #424245",
"e$	c #919190",
"f$	c #9B9B9A",
"g$	c #5A5A5B",
"h$	c #070707",
"i$	c #B1B1B0",
"j$	c #BCBCBC",
"k$	c #4A494A",
"l$	c #CACACA",
"m$	c #0D0D0D",
"n$	c #5B5B5B",
"o$	c #5F5F60",
"p$	c #6E6E70",
"q$	c #212020",
"r$	c #58595C",
"s$	c #242325",
"t$	c #3C3C3D",
"u$	c #B1B1AF",
"v$	c #7D7C7D",
"w$	c #262525",
"x$	c #CAC9C9",
"y$	c #080707",
"z$	c #434343",
"A$	c #5E5E61",
"B$	c #908F8F",
"C$	c #676768",
"D$	c #6D6D6E",
"E$	c #8F8F8D",
"F$	c #9A9998",
"G$	c #151516",
"H$	c #AFAFAD",
"I$	c #C6C7C6",
"J$	c #535353",
"K$	c #7C7C7F",
"L$	c #2A292A",
"M$	c #3B3B3E",
"N$	c #59595C",
"O$	c #90908E",
"P$	c #434347",
"Q$	c #686769",
"R$	c #8D8C8C",
"S$	c #8F9090",
"T$	c #B7B7B7",
"U$	c #D7D7D6",
"V$	c #C6C6C6",
"W$	c #494948",
"X$	c #676669",
"Y$	c #262527",
"Z$	c #2F2E31",
"`$	c #68686A",
" %	c #8A8A89",
".%	c #7D7C7C",
"+%	c #8F8E8F",
"@%	c #1D1C1C",
"#%	c #6A6A6D",
"$%	c #69696A",
"%%	c #212021",
"&%	c #7C7B7B",
"*%	c #D5D5D4",
"=%	c #A3A3A4",
"-%	c #595859",
";%	c #636364",
">%	c #565657",
",%	c #727173",
"'%	c #ACADAC",
")%	c #D4D4D2",
"!%	c #787878",
"~%	c #383838",
"{%	c #848483",
"]%	c #B0AFAE",
"^%	c #4F4E4F",
"/%	c #4D4C4B",
"(%	c #090908",
"_%	c #0D0C0E",
":%	c #898888",
"<%	c #717071",
"[%	c #141315",
"}%	c #D2D2D0",
"|%	c #646465",
"1%	c #48484A",
"2%	c #666567",
"3%	c #B2B2B0",
"4%	c #777677",
"5%	c #AAABAA",
"6%	c #A6A5A4",
"7%	c #49494A",
"8%	c #2C2C2E",
"9%	c #323130",
"0%	c #343435",
"a%	c #747373",
"b%	c #313032",
"c%	c #100F11",
"d%	c #0B090B",
"e%	c #686869",
"f%	c #464646",
"g%	c #1C1C1D",
"h%	c #4E4E51",
"i%	c #444345",
"j%	c #1F1E1F",
"k%	c #616062",
"l%	c #363639",
"m%	c #252426",
"n%	c #3A3A3B",
"o%	c #151414",
"p%	c #1F1E20",
"q%	c #6C6B6C",
"r%	c #090909",
"s%	c #404044",
"t%	c #535355",
"u%	c #4E4E4F",
"v%	c #353435",
"w%	c #49484A",
"x%	c #2D2D31",
"y%	c #3E3E3F",
"z%	c #373636",
"A%	c #101011",
"B%	c #282728",
"C%	c #363538",
"D%	c #666565",
"E%	c #262626",
"F%	c #1D1D1D",
"G%	c #2B2A2B",
"H%	c #4A4949",
"I%	c #0B0B0C",
"J%	c #303030",
"K%	c #161517",
"L%	c #131315",
"M%	c #1E1D1E",
"    . + @ @     ",
"  # # # $ % @   ",
"  # . % . # $   ",
"  & # + * = .   ",
"  - $ + ; > @   ",
"    @ , ' )     ",
"                ",
"                ",
"    . + @ @     ",
"  # # # $ ! @   ",
"  # . % . # $   ",
"  # # + > ~ .   ",
"  @ $ + > ; {   ",
"    { ] ' ^ /   ",
"        (       ",
"                ",
"    $ + @ _     ",
"  # & & % % )   ",
"  # . % $ # % : ",
"  & # + @ = $ < ",
"  - $ + ) > >   ",
"    { [ ' ) }   ",
"                ",
"                ",
"    $ + @ ^     ",
"  # # & % % |   ",
"  # . ! . # %   ",
"  # # + > 1 . 2 ",
"  - $ + > ; 3   ",
"    { [ ' 4 5   ",
"                ",
"                ",
"    . + - 6     ",
"  # # & % % 7   ",
"  # . ! . # %   ",
"  & # . > 1 . 8 ",
"  - $ + > ; 9   ",
"    @ [ [ [ 0   ",
"        (       ",
"                ",
"    $ + @ a     ",
"  # & & % % b   ",
"  # . % + # !   ",
"  # # . @ = $ c ",
"  - $ d ; > e   ",
"    @ ] [ f g   ",
"        h       ",
"                ",
"    $ + @ i     ",
"  # & & % % j   ",
"  # . % . # k   ",
"  # # + @ ~ l m ",
"  { $ + ; * n   ",
"    @ [ ' o     ",
"        h       ",
"                ",
"    . + @ p     ",
"  q # & % % r   ",
"  # + ! . # s   ",
"  # # . @ = t u ",
"  { $ + ; > v   ",
"    @ [ ' w x   ",
"        y       ",
"                ",
"    . + = z     ",
"  # # & % & A   ",
"  # . % . # B   ",
"  # # + @ ~ C D ",
"  { $ + > > E   ",
"    { [ ' F     ",
"        G       ",
"                ",
"    $ + = H     ",
"  # & & % 3 I   ",
"  # + % $ # J   ",
"  & # . > d K L ",
"  @ $ + ; M N   ",
"    @ [ , O     ",
"        P       ",
"                ",
"    . . = Q     ",
"  # # & % R S   ",
"  # . % . T U   ",
"  # # + @ 2 V L ",
"  @ $ . ) W X   ",
"    @ [ Y Z     ",
"                ",
"                ",
"    . + ) `     ",
"  # # & %  ...  ",
"  # . % $ +.@.  ",
"  & # + @ #.$.%.",
"  - $ + ; &.*.  ",
"    { [ ' =.-.  ",
"                ",
"                ",
"    + + 2 ;.    ",
"  # # # % >.,.  ",
"  # . % $ '.).  ",
"  # # . @ !.~.{.",
"  { $ + @ ].^.  ",
"    @ ] 7 /.    ",
"                ",
"                ",
"    . + (.].    ",
"  # # & _.:.<.  ",
"  # . % [.}.|.  ",
"  & # . 1.2.3.{.",
"  @ % + 4.X 5.  ",
"    @ [ 6.7.8.  ",
"                ",
"                ",
"    + . 9.0.    ",
"  # & & R a.b.  ",
"  # . % c.d.e.  ",
"  & # + f.g.h.D ",
"  - $ + i.j.k.  ",
"    @ ] l.m.    ",
"                ",
"                ",
"    . $ n.o.    ",
"  # # # p.q.b.  ",
"  # + ! r.s.t.  ",
"  # # $ E u.v.u ",
"  { $ % w.x.k.  ",
"    @ ) I y.    ",
"                ",
"                ",
"    . z.w.A.    ",
"  # # B.C.D.E.  ",
"  # . F.@.G.H.  ",
"  # # I.J.K.L.M.",
"  { % N.O.P.Q.  ",
"    { R.S.T.    ",
"                ",
"                ",
"    + U.V.W.    ",
"  # # X.Y.Z.X   ",
"  # + `.Q  +.+  ",
"  # # ++W.@+#+  ",
"  @ $ $+%+&+k.  ",
"    @ *+=+-+    ",
"                ",
"                ",
"    . ;+>+,+    ",
"  # # '+)+Z.!+  ",
"  # % ~+{+]+t.  ",
"  & # ^+/+(+_+:+",
"  @ % <+&+/.k.  ",
"    @ _+[+}+    ",
"        |+      ",
"                ",
"    + 1+2+W.    ",
"  # 3 3+4+U E.  ",
"  # 5+6+7+8+.+  ",
"  & 9+0+a+b+_+c+",
"  { d+e+/.f+k.  ",
"    = g+h+i+j+  ",
"        k+      ",
"                ",
"    l+)+m+n+    ",
"  # o+p+q+^+X   ",
"  # r+s+V t+u+  ",
"  & v+w+!+x+A c+",
"  @ y+z+f+A+k.  ",
"    B+C+D+i+    ",
"                ",
"                ",
"    E+^+F+I     ",
"  # G+H+I+J+b.  ",
"  # K+Y.L+M+Z   ",
"  # '+N+*.O+P+Q+",
"  @ R+A A+y.k.  ",
"    S+T+U+i+    ",
"                ",
"                ",
"    V+@.W+X+    ",
"  # Y+Z+D.`+E.  ",
"   @.@+@@@#@@.  ",
"  $@8+%@&@*@=@c+",
"  ) -@L.;@>@%+  ",
"    ,@'@C+=+    ",
"        )@      ",
"                ",
"    !@@.~@I     ",
"   @t+{@]@^@/@  ",
"  (@_@:@=@#@).  ",
"  <@M+[@k.}@~.|@",
"  1@a.2@3@4@5.  ",
"    5@6@7@8@    ",
"        )@      ",
"                ",
"    9@@.0@I     ",
"  a@b@c@Z.^@d@  ",
"  e@f@q.g@M+h@  ",
"  i@1+=@g+a+@@Q+",
"  j@k@l@m@n@5.  ",
"    v.o@p@q@    ",
"                ",
"                ",
"    c@r@J.I     ",
"  s@#@t@u@U a+  ",
"  v@w+I+h.#@^@  ",
"  w@x@g@&+}@@@y@",
"  z@A@l@q@B@&@  ",
"    C@D@E@=+    ",
"        )@      ",
"                ",
"    I+|.J.I     ",
"  F@G@H@J+J+,.  ",
"  '+I@u@_+M+J@  ",
"  K@L@_+M@O+$.  ",
"  N@O@P@=+y.O.  ",
"    Q@R@S@i+    ",
"      -.        ",
"                ",
"    T@|.U@I     ",
"  V@W@t@U J+X@  ",
"  Y@Z@^+v.t+J+  ",
"  `@ #.#7.+#@###",
"  $#%#&#*#B@O.  ",
"    o.=#-#;#    ",
"        )@      ",
"                ",
"    .+>#,#W.    ",
"  R+'#)#^+u@!#  ",
"  ~#L+^+{#8+u@  ",
"  t+]#^#M@b+V /#",
"  (#]@_#S.:#<#  ",
"    (+[#-#}+    ",
"        )@      ",
"                ",
"    }#u+J.@+    ",
"  G.|#1#U 2#/+  ",
"  3#%@J@{#4#Z.  ",
"  5#~+6#7#(+8#9#",
"  0#u@_#a#7.<#  ",
"    S =#p@}+    ",
"                ",
"                ",
"    b#>#J.c#    ",
"  ]+d#)#J+]@S   ",
"  e#[@T@L.f#]@  ",
"  #@g#h#i#@+{+j#",
"  b+k#l#*#m#X   ",
"    n#o#S@;@p#  ",
"        )@      ",
"                ",
"    q#u+;.r#    ",
"   +d#1#U D.s#  ",
"  3#=@@.v.s.I+  ",
"  K@t#h#u#v#7+w#",
"  x#l.y#q@P.z#  ",
"    O+A#-#B#C#  ",
"                ",
"                ",
"    D#Q E#0.i@  ",
"  M+F#G#J+H#W.  ",
"  I#J#@.g@K#q.  ",
"  L#M#N#k.U@}#(.",
"  O#!.y#q@Q.O+  ",
"    *@P#p@n@M.  ",
"        )@      ",
"                ",
"    n.Z Q#R#    ",
"  S#F#1#Z.T#m+  ",
"  U#v.|.V#s.4+  ",
"  x@W#y#x.X#H.U.",
"  *@^@l#3@k.Y#  ",
"    Z#`#E@f+ $  ",
"        .$      ",
"                ",
"    n.u+Q#+$    ",
"  #@F#1#Z.q._#  ",
"  '+#+|.@$#$4+  ",
"  '#$$h#&@F+Z %$",
"  a+&$y#*$=$].  ",
"    a+`#-$7.;$  ",
"        >$      ",
"                ",
"    ,$u+R#y#    ",
"  #@t#1#I+4+Q   ",
"  '$)$!$~${$4+  ",
"  L@r.h#*.g.]$q ",
"  ^$T@/$T.&@($  ",
"    Z#A#C+_$:$  ",
"        <$      ",
"                ",
"    [$.+R#}$    ",
"  |$3+1#H#)+9.  ",
"  1$E h@@#2$8+  ",
"  3$c@h#4$5$J   ",
"  6$T@l#A+*.7$  ",
"    a+=#U+,.8$  ",
"        -.      ",
"                ",
"    V Q ].k#    ",
"  9$p+0$H#a$b$  ",
"  c$E J@,$'+d$  ",
"  d#C.e$^$f$g$h$",
"  i$!$_#j$X k$  ",
"    a+A#l$X#m$  ",
"        n$      ",
"                ",
"    @#u+].o$    ",
"  .$t#p$4+Y.q$  ",
"  r$.#U {+Y@s$  ",
"  3$H@.#*@C@t$  ",
"  u$v$_#M@^$w$  ",
"    a+=#x$$.y$  ",
"        m       ",
"                ",
"    n.|.2+z$    ",
"  M+p+H@4+A$=   ",
"  d.B$Z.}#'+G   ",
"  C$D$E$/+F$G$  ",
"  H$@.P@P.Q#=   ",
"    ,.R@I$9$/   ",
"        J$      ",
"                ",
"    n.K$+$L$    ",
"  x@3+H@Y.M$@   ",
"  N$O$I+u+P$$   ",
"  Q$c@R$I !$$ h$",
"  i$v$S$T$O@>   ",
"    a+U$V$S+    ",
"        W$      ",
"                ",
"    V @._#M     ",
"  L#X$c@p$Y$@   ",
"  G.#+<+).Z$%   ",
"  `$c@ %o.L .   ",
"  <#.%+%j.b${   ",
"    Z#o@B#@%/   ",
"                ",
"                ",
"    @#@.^+@     ",
"  x@F##%p$. -   ",
"  K##+a.h@G$%   ",
"  $%#%%@J.%%. h$",
"  <#&%L.&@' @   ",
"    ,.*%=%>     ",
"                ",
"                ",
"    ,$&$-%-     ",
"  ;%d#Z+>%$ @   ",
"  s.v.,%8+# $   ",
"  M#W#N+H.1 .   ",
"  i$!.3.V ; @   ",
"    '%)%!%)     ",
"                ",
"                ",
"    7+k#~%@     ",
"  ;%d#p+s % @   ",
"  K#=@J R # $   ",
"  >.$%{%k$~ .   ",
"  ]%!.~$^%> @   ",
"    O+-#/%) (%  ",
"                ",
"                ",
"    w+>#^ @     ",
"  x@'#M#_%% @   ",
"  K#:%<%G # $   ",
"  M#t#n.' ~ .   ",
"  <#k#3.[%> @   ",
"    n#}%k ) (%  ",
"                ",
"                ",
"    {+|%= @     ",
"  ;%W@1%% % @   ",
"  K#N+^%$ # %   ",
"  >.2%L @ 1 .   ",
"  3%4%{$) > @   ",
"    5%6%Y )     ",
"        /       ",
"                ",
"    }#7%- @     ",
"  L#|$8%% % @   ",
"  s.{%:$. # $   ",
"  M#x@9%@ 1 . h$",
"  i$:@0%) > @   ",
"    (+a%, ^ (%  ",
"        /       ",
"                ",
"    q#b%@ @     ",
"  L#L#c%% d%@   ",
"  s.]$& . # $   ",
"  e%W@% @ = . h$",
"  N <+6 ; > @   ",
"    A.f%' )     ",
"                ",
"                ",
"    .+g%@ @     ",
"  8+h%& % % @   ",
"  N$M.% . # $   ",
"  t#i%+ @ ~ .   ",
"  ^$}.. ; ; @   ",
"    =.j%' ) (%  ",
"                ",
"                ",
"    q.G @ @     ",
"  k%l%# $ % @   ",
"  d.5+% . # $   ",
"  ~+m%+ > 1 .   ",
"  6$n%+ > > @   ",
"    g@o%' ) /   ",
"                ",
"                ",
"    ;%% - @     ",
"  8+p%& % $ @   ",
"  G.* ! . # %   ",
"  t#& + > = .   ",
"  X@j%+ > ^ @   ",
"    q%[ ' Y r%  ",
"                ",
"                ",
"    n $ @ @     ",
"  #$y # $ % G   ",
"  s%. % . # $   ",
"  t%# . @ ~ . h$",
"  U@d + ^ ; @   ",
"    u%[ ' )     ",
"                ",
"                ",
"    v%$ @ @     ",
"  w%# # % % @   ",
"  x%. % . # .   ",
"  y%# + @ 1 .   ",
"  ($% . ; ^ @   ",
"    z%[ ) ) (%  ",
"      A%(       ",
"                ",
"    B%. - @     ",
"  C%# & $ % G   ",
"  F.. % $ # $   ",
"  (@# + @ 1 +   ",
"  D%$ + ; > @   ",
"    E%[ [ )     ",
"      m$        ",
"                ",
"    F%. @ @     ",
"  G%# & $ % @   ",
"  * . % . # %   ",
"  $@# . @ 1 .   ",
"  H%$ + ^ > {   ",
"    8$] [ )     ",
"      I%(%      ",
"                ",
"    l . @ @     ",
"  p%# & % ! @   ",
"  # . % . # $   ",
"  # # + @ 1 .   ",
"  J%$ + > > @   ",
"    K%] , )     ",
"      h (%      ",
"                ",
"    c%. @ @     ",
"  L%# & % % @   ",
"  # . % . # $   ",
"  # # + @ = . h$",
"  M%$ + > > @   ",
"    ^ ] ' ) (%  ",
"                ",
"                ",
"    ~ + @ @     ",
"  _%# & % % @   ",
"  # + $ $ # $   ",
"  # # . @ 1 .   ",
"  [ $ + ; > @   ",
"    > ] ' ) (%  ",
"        (       ",
"                ",
"    . + - @     ",
"  & # & % % @   ",
"  # + % . # $   ",
"  & # . @ 1 .   ",
"  _ $ + ; > @   ",
"    @ [ , )     ",
"                ",
"                ",
"                ",
"                ",
"                ",
"                ",
"                ",
"                ",
"                ",
"                "};
