/* XPM */
static char * osun_xpm[] = {
/* columns rows colors chars-per-pixel */
"54 324 239 2",
"   c black",
".  c #0d0000",
"X  c #140000",
"o  c #1c0000",
"O  c #240000",
"+  c #2c0000",
"@  c #330000",
"#  c #3c0000",
"$  c #430000",
"%  c #4b0000",
"&  c #530000",
"*  c #5b0000",
"=  c #5e0900",
"-  c #630000",
";  c #600d00",
":  c #6b0000",
">  c #651300",
",  c #681700",
"<  c #6c1c00",
"1  c #730000",
"2  c #750a00",
"3  c #7b0000",
"4  c #7c0b00",
"5  c #7f1100",
"6  c #6e2000",
"7  c #722500",
"8  c #762b00",
"9  c #782e00",
"0  c #773103",
"q  c #763208",
"w  c #7a3301",
"e  c #783508",
"r  c #7d3b03",
"t  c #7c3d0b",
"y  c #7a3d13",
"u  c #7f4006",
"i  c #7e420a",
"p  c #7e4412",
"a  c #7f4815",
"s  c #7f4e1b",
"d  c #7f5124",
"f  c #7f5329",
"g  c #7f5e3b",
"h  c #7f6f5e",
"j  c #830000",
"k  c DarkRed",
"l  c #821300",
"z  c #861900",
"x  c #891c00",
"c  c #920200",
"v  c #950800",
"b  c #9b0000",
"n  c #990c00",
"m  c #961300",
"M  c #9e1200",
"N  c #8d2100",
"B  c #902500",
"V  c #942b00",
"C  c #982e00",
"Z  c #9b3400",
"A  c #9e3900",
"S  c #a30000",
"D  c #a30a00",
"F  c #ab0200",
"G  c #a90900",
"H  c #a01500",
"J  c #a41a00",
"K  c #a81e00",
"L  c #b00500",
"P  c #b40a00",
"I  c #b80e00",
"U  c #b61300",
"Y  c #bc1300",
"T  c #ab2300",
"R  c #a03d00",
"E  c #b22c00",
"W  c #b63200",
"Q  c #b83500",
"!  c #bc3a00",
"~  c #804a13",
"^  c #804f1d",
"/  c #9f4006",
"(  c #9d410a",
")  c #805426",
"_  c #805f3b",
"`  c #a24301",
"'  c #a04609",
"]  c #a54a03",
"[  c #a44d09",
"{  c #a84c01",
"}  c #a84f08",
"|  c #a24f15",
" . c #a14f1b",
".. c #a75107",
"X. c #a6520d",
"o. c #a85105",
"O. c #a8540a",
"+. c #a8590d",
"@. c #a55413",
"#. c #a6591b",
"$. c #a85511",
"%. c #a85d14",
"&. c #a85919",
"*. c #be4102",
"=. c #a8611b",
"-. c #a86723",
";. c #a86a2b",
":. c #a86e34",
">. c #a8723c",
",. c #80674f",
"<. c #806a54",
"1. c #806f5f",
"2. c #807266",
"3. c #807770",
"4. c #807975",
"5. c #a87d4f",
"6. c #a87d50",
"7. c #c01700",
"8. c #c21a00",
"9. c #c62000",
"0. c #c92400",
"q. c #cd2a00",
"w. c #c03e00",
"e. c #d02d00",
"r. c #d43300",
"t. c #d83700",
"y. c #db3b00",
"u. c #c34400",
"i. c #c54900",
"p. c #c44f08",
"a. c #c84700",
"s. c #c84d00",
"d. c #c75003",
"f. c #c55009",
"g. c #ca5301",
"h. c #c85609",
"j. c #cd5a03",
"k. c #cb5b09",
"l. c #de4000",
"z. c #d05700",
"x. c #d05d01",
"c. c #cf6107",
"v. c #ce620a",
"b. c #ce6613",
"n. c #cb641b",
"m. c #cf6a17",
"M. c #cf6c1d",
"N. c #d06205",
"B. c #d06509",
"V. c #d36a07",
"C. c #d26a0b",
"Z. c #d06b14",
"A. c #d37315",
"S. c #d2731b",
"D. c #c96422",
"F. c #d07124",
"G. c #d37922",
"H. c #e14500",
"J. c #e54a00",
"K. c #e84d00",
"L. c #e55002",
"P. c #e65209",
"I. c #eb5300",
"U. c #ee5901",
"Y. c #ec5c08",
"T. c #f05700",
"R. c #f15c00",
"E. c #ed620c",
"W. c #ec6412",
"Q. c #f46202",
"!. c #f16409",
"~. c #f66903",
"^. c #f56b0a",
"/. c #f86500",
"(. c #f96c02",
"). c #f86f0d",
"_. c #f36d12",
"`. c #f7710d",
"'. c #fa7204",
"]. c #f97309",
"[. c #fc7805",
"{. c #fc7b0b",
"}. c #f67311",
"|. c #f77c1e",
" X c #f87610",
".X c #fa7b14",
"XX c #f57921",
"oX c #f3792a",
"OX c #a9865f",
"+X c #a98967",
"@X c #a98d6e",
"#X c #a99072",
"$X c #a8947d",
"%X c #d3812c",
"&X c #d38634",
"*X c #d08138",
"=X c #d3893d",
"-X c #fd800c",
";X c #fd8213",
":X c #fb821a",
">X c #fe8816",
",X c #fe8c1c",
"<X c #f98324",
"1X c #fd8c23",
"2X c #fb8a2d",
"3X c #fe942b",
"4X c #fe9d37",
"5X c #d38b43",
"6X c #d4924f",
"7X c #d39d63",
"8X c #d4a777",
"9X c #fc9c45",
"0X c #fea142",
"qX c #fea449",
"wX c #fea84e",
"eX c #fea752",
"rX c #feab58",
"tX c #ffb160",
"yX c #febd79",
"uX c #a99988",
"iX c #a9a097",
"pX c #a9a29b",
"aX c #d4ad82",
"sX c #d4b08a",
"dX c #d4b290",
"fX c #d3b89b",
"gX c #d4baa0",
"hX c #d4c8bb",
"jX c #ffc990",
"kX c #ffd09e",
"lX c #ffd4a7",
"zX c #ffd8af",
"xX c #fedebc",
"cX c #d4cbc1",
"vX c #ffe1c1",
"bX c #ffe7cd",
"nX c #fff1e3",
"mX c #fff5ea",
"MX c None",
/* pixels */
"MXMXMXMXMXMXMXMXMXMXMXMXMXMXMXMXMXMXMXMXMXMXMXMXMXMXMXMXMXMXMXMXMXMXMXMXMXMXMXMXMXMXMXMXMXMXMXMXMXMXMXMXMXMX",
"MXMXMXMXMXMXMXMXMXMXMXMXMXMXMXMXMXMXMXMXMXMXMXMXMXMXMXMXMXMXMXMXMXMXMXMXMXMXMXMXMXMXMXMXMXMXMXMXMXMXMXMXMXMX",
"MXMXMXMXMXMXMXMXMXMXMXMXMXMXMXMXMXMXMXMXMXMXMXMXMXMXMXMXMXMXMXMXMXMXMXMXMXMXMXMXMXMXMXMXMXMXMXMXMXMXMXMXMXMX",
"MXMXMXMXMXMXMXMXMXMXMXMXMXMXMXMXMXMXMXMXMXMXMXMXMXMXMXMXMXMXMXMXMXMXMXMXMXMXMXMXMXMXMXMXMXMXMXMXMXMXMXMXMXMX",
"MXMXMXMXMXMXMXMXMXMXMXMXMXMXMXMXMXMXMXMXMXMXMXMXMXMXMXMXMXMXMXMXMXMXMXMXMXMXMXMXMXMXMXMXMXMXMXMXMXMXMXMXMXMX",
"MXMXMXMXMXMXMXMXMXMXMXMXMXMXMXMXMXMXMXMXMXMXMXMXMXMXMXMXMXMXMXMXMXMXMXMXMXMXMXMXMXMXMXMXMXMXMXMXMXMXMXMXMXMX",
"MXMXMXMXMXMXMXMXMXMXMXMXMXMXMXMXMXMXMXMXMXMXMXMXMXMXMXMXMXMXMXMXMXMXMXMXMXMXMXMXMXMXMXMXMXMXMXMXMXMXMXMXMXMX",
"MXMXMXMXMXMXMXMXMXMXMXMXMXMXMXMXMXMXMXMXMXMXMXMXMXMXMXMXMXMXMXMXMXMXMXMXMXMXMXMXMXMXMXMXMXMXMXMXMXMXMXMXMXMX",
"MXMXMXMXMXMXMXMXMXMXMXMXMXMXMXMXMXMXMXMXMXMXMXMXMXMXMXMXMXMXMXMXMXMXMXMXMXMXMXMXMXMXMXMXMXMXMXMXMXMXMXMXMXMX",
"MXMXMXMXMXMXMXMXMXMXMXMXMXMXMXMXMXMXMXMXMXMXMXMXMXMXMXMXMXMXMXMXMXMXMXMXMXMXMXMXMXMXMXMXMXMXMXMXMXMXMXMXMXMX",
"MXMXMXMXMXMXMXMXMXMXMXMXMXMXMXMXMXMXMXMXMXMXMXMXMXMXMXMXMXMXMXMXMXMXMXMXMXMXMXMXMXMXMXMXMXMXMXMXMXMXMXMXMXMX",
"MXMXMXMXMXMXMXMXMXMXMXMXMXMXMXMXMXMXMXMXMXMXMXMXMXMXMXMXMXMXMXMXMXMXMXMXMXMXMXMXMXMXMXMXMXMXMXMXMXMXMXMXMXMX",
"MXMXMXMXMXMXMXMXMXMXMXMXMXMXMXMXMXMXMXMXMXMXMXMXMXMXMXMXMXMXMXMXMXMXMXMXMXMXMXMXMXMXMXMXMXMXMXMXMXMXMXMXMXMX",
"MXMXMXMXMXMXMXMXMXMXMXMXMXMXMXMXMXMXMXMXMXMXMXMXMXMXMXMXMXMXMXMXMXMXMXMXMXMXMXMXMXMXMXMXMXMXMXMXMXMXMXMXMXMX",
"MXMXMXMXMXMXMXMXMXMXMXMXMXMXMXMXMXMXMXMXMXMXMXMXMXMXMXMXMXMXMXMXMXMXMXMXMXMXMXMXMXMXMXMXMXMXMXMXMXMXMXMXMXMX",
"MXMXMXMXMXMXMXMXMXMXMXMXMXMXMXMXMXMXMXMXMXMXMXMXMXMXMXMXMXMXMXMXMXMXMXMXMXMXMXMXMXMXMXMXMXMXMXMXMXMXMXMXMXMX",
"MXMXMXMXMXMXMXMXMXMXMXMXMXMXMXMXMXMXMXMXMXMXMXMXMXMXMXMXMXMXMXMXMXMXMXMXMXMXMXMXMXMXMXMXMXMXMXMXMXMXMXMXMXMX",
"MXMXMXMXMXMXMXMXMXMXMXMXMXMXMXMXMXMXMXMXMXMXMXMXMXMXMXMXMXMXMXMXMXMXMXMXMXMXMXMXMXMXMXMXMXMXMXMXMXMXMXMXMXMX",
"MXMXMXMXMXMXMXMXMXMXMXMXMXMXMXMXMXMXMXMXMXMXMXMXMXMXMXMXMXMXMXMXMXMXMXMXMXMXMXMXMXMXMXMXMXMXMXMXMXMXMXMXMXMX",
"MXMXMXMXMXMXMXMXMXMXMXMXMXMXMXMXMXMXMXMXMXMXMXMXMXMXMXMXMXMXMXMXMXMXMXMXMXMXMXMXMXMXMXMXMXMXMXMXMXMXMXMXMXMX",
"MXMXMXMXMXMXMXMXMXMXMXMXMXMXMXMXMXMXMXMXMXMXMXMXMXMXMXMXMXMXMXMXMXMXMXMXMXMXMXMXMXMXMXMXMXMXMXMXMXMXMXMXMXMX",
"MXMXMXMXMXMXMXMXMXMXMXMXMXMXMXMXMXMXMXMXMXMXMXMXMXMXMXMXMXMXMXMXMXMXMXMXMXMXMXMXMXMXMXMXMXMXMXMXMXMXMXMXMXMX",
"MXMXMXMXMXMXMXMXMXMXMXMXMXMXMXMXMXMXMXMXMXMXMXMXMXMXMXMXMXMXMXMXMXMXMXMXMXMXMXMXMXMXMXMXMXMXMXMXMXMXMXMXMXMX",
"MXMXMXMXMXMXMXMXMXMXMXMXMXMXMXMXMXMXMXMXMXMXMXMXMXMXMXMXMXMXMXMXMXMXMXMXMXMXMXMXMXMXMXMXMXMXMXMXMXMXMXMXMXMX",
"MXMXMXMXMXMXMXMXMXMXMXMXMXMXMXMXMXMXMXMXMXMXMXMXMXMXMXMXMXMXMXMXMXMXMXMXMXMXMXMXMXMXMXMXMXMXMXMXMXMXMXMXMXMX",
"MXMXMXMXMXMXMXMXMXMXMXMXMXMXMXMXMXMXMXMXMXMXMXMXMXMXMXMXMXMXMXMXMXMXMXMXMXMXMXMXMXMXMXMXMXMXMXMXMXMXMXMXMXMX",
"MXMXMXMXMXMXMXMXMXMXMXMXMXMXMXMXMXMXMXMXMXMXMXMXMXMXMXMXMXMXMXMXMXMXMXMXMXMXMXMXMXMXMXMXMXMXMXMXMXMXMXMXMXMX",
"MXMXMXMXMXMXMXMXMXMXMXMXMXMXMXMXMXMXMXMXMXMXMXMXMXMXMXMXMXMXMXMXMXMXMXMXMXMXMXMXMXMXMXMXMXMXMXMXMXMXMXMXMXMX",
"MXMXMXMXMXMXMXMXMXMXMXMXMXMXMXMXMXMXMXMXMXMXMXMXMXMXMXMXMXMXMXMXMXMXMXMXMXMXMXMXMXMXMXMXMXMXMXMXMXMXMXMXMXMX",
"MXMXMXMXMXMXMXMXMXMXMXMXMXMXMXMXMXMXMXMXMXMXMXMXMXMXMXMXMXMXMXMXMXMXMXMXMXMXMXMXMXMXMXMXMXMXMXMXMXMXMXMXMXMX",
"MXMXMXMXMXMXMXMXMXMXMXMXMXMXMXMXMXMXMXMXMXMXMXMXMXMXMXMXMXMXMXMXMXMXMXMXMXMXMXMXMXMXMXMXMXMXMXMXMXMXMXMXMXMX",
"MXMXMXMXMXMXMXMXMXMXMXMXMXMXMXMXMXMXMXMXMXMXMXMXMXMXMXMXMXMXMXMXMXMXMXMXMXMXMXMXMXMXMXMXMXMXMXMXMXMXMXMXMXMX",
"MXMXMXMXMXMXMXMXMXMXMXMXMXMXMXMXMXMXMXMXMXMXMXMXMXMXMXMXMXMXMXMXMXMXMXMXMXMXMXMXMXMXMXMXMXMXMXMXMXMXMXMXMXMX",
"MXMXMXMXMXMXMXMXMXMXMXMXMXMXMXMXMXMXMXMXMXMXMXMXMXMXMXMXMXMXMXMXMXMXMXMXMXMXMXMXMXMXMXMXMXMXMXMXMXMXMXMXMXMX",
"MXMXMXMXMXMXMXMXMXMXMXMXMXMXMXMXMXMXMXMXMXMXMXMXMXMXMXMXMXMXMXMXMXMXMXMXMXMXMXMXMXMXMXMXMXMXMXMXMXMXMXMXMXMX",
"MXMXMXMXMXMXMXMXMXMXMXMXMXMXMXMXMXMXMXMXMXMXMXMXMXMXMXMXMXMXMXMXMXMXMXMXMXMXMXMXMXMXMXMXMXMXMXMXMXMXMXMXMXMX",
"MXMXMXMXMXMXMXMXMXMXMXMXMXMXMXMXMXMXMXMXMXMXMXMXMXMXMXMXMXMXMXMXMXMXMXMXMXMXMXMXMXMXMXMXMXMXMXMXMXMXMXMXMXMX",
"MXMXMXMXMXMXMXMXMXMXMXMXMXMXMXMXMXMXMXMXMXMXMXMXMXMXMXMXMXMXMXMXMXMXMXMXMXMXMXMXMXMXMXMXMXMXMXMXMXMXMXMXMXMX",
"MXMXMXMXMXMXMXMXMXMXMXMXMXMXMXMXMXMXMXMXMXMXMXMXMXMXMXMXMXMXMXMXMXMXMXMXMXMXMXMXMXMXMXMXMXMXMXMXMXMXMXMXMXMX",
"MXMXMXMXMXMXMXMXMXMXMXMXMXMXMXMXMXMXMXMXMXMXMXMXMXMXMXMXMXMXMXMXMXMXMXMXMXMXMXMXMXMXMXMXMXMXMXMXMXMXMXMXMXMX",
"MXMXMXMXMXMXMXMXMXMXMXMXMXMXMXMXMXMXMXMXMXMXMXMXMXMXMXMXMXMXMXMXMXMXMXMXMXMXMXMXMXMXMXMXMXMXMXMXMXMXMXMXMXMX",
"MXMXMXMXMXMXMXMXMXMXMXMXMXMXMXMXMXMXMXMXMXMXMXMXMXMXMXMXMXMXMXMXMXMXMXMXMXMXMXMXMXMXMXMXMXMXMXMXMXMXMXMXMXMX",
"MXMXMXMXMXMXMXMXMXMXMXMXMXMXMXMXMXMXMXMXMXMXMXMXMXMXMXMXMXMXMXMXMXMXMXMXMXMXMXMXMXMXMXMXMXMXMXMXMXMXMXMXMXMX",
"MXMXMXMXMXMXMXMXMXMXMXMXMXMXMXMXMXMXMXMXMXMXMXMXMXMXMXMXMXMXMXMXMXMXMXMXMXMXMXMXMXMXMXMXMXMXMXMXMXMXMXMXMXMX",
"MXMXMXMXMXMXMXMXMXMXMXMXMXMXMXMXMXMXMXMXMXMXMXMXMXMXMXMXMXMXMXMXMXMXMXMXMXMXMXMXMXMXMXMXMXMXMXMXMXMXMXMXMXMX",
"MXMXMXMXMXMXMXMXMXMXMXMXMXMXMXMXMXMXMXMXMXMXMXMXMXMXMXMXMXMXMXMXMXMXMXMXMXMXMXMXMXMXMXMXMXMXMXMXMXMXMXMXMXMX",
"MXMXMXMXMXMXMXMXMXMXMXMXMXMXMXMXMXMXMXMXMXMXMXMXMXMXMXMXMXMXMXMXMXMXMXMXMXMXMXMXMXMXMXMXMXMXMXMXMXMXMXMXMXMX",
"MXMXMXMXMXMXMXMXMXMXMXMXMXMXMXMXMXMXMXMXMXMXMXMXMXMXMXMXMXMXMXMXMXMXMXMXMXMXMXMXMXMXMXMXMXMXMXMXMXMXMXMXMXMX",
"MXMXMXMXMXMXMXMXMXMXMXMXMXMXMXMXMXMXMXMXMXMXMXMXMXMXMXMXMXMXMXMXMXMXMXMXMXMXMXMXMXMXMXMXMXMXMXMXMXMXMXMXMXMX",
"MXMXMXMXMXMXMXMXMXMXMXMXMXMXMXMXMXMXMXMXMXMXMXMXMXMXMXMXMXMXMXMXMXMXMXMXMXMXMXMXMXMXMXMXMXMXMXMXMXMXMXMXMXMX",
"MXMXMXMXMXMXMXMXMXMXMXMXMXMXMXMXMXMXMXMXMXMXMXMXMXMXMXMXMXMXMXMXMXMXMXMXMXMXMXMXMXMXMXMXMXMXMXMXMXMXMXMXMXMX",
"MXMXMXMXMXMXMXMXMXMXMXMXMXMXMXMXMXMXMXMXMXMXMXMXMXMXMXMXMXMXMXMXMXMXMXMXMXMXMXMXMXMXMXMXMXMXMXMXMXMXMXMXMXMX",
"MXMXMXMXMXMXMXMXMXMXMXMXMXMXMXMXMXMXMXMXMXMXMXMXMXMXMXMXMXMXMXMXMXMXMXMXMXMXMXMXMXMXMXMXMXMXMXMXMXMXMXMXMXMX",
"MXMXMXMXMXMXMXMXMXMXMXMXMXMXMXMXMXMXMXMXMXMXMXMXMXMXMXMXMXMXMXMXMXMXMXMXMXMXMXMXMXMXMXMXMXMXMXMXMXMXMXMXMXMX",
"tXtXtXtXtXtXtXtXtXtXtXtXtXtXtXtXtXtXtXtXtXtXtXtXtXtXtXtXtXtXtXtXtXtXtXtXtXtXtXtXtXtXtXtXtXtXtXtXtXtXtXtXtXtX",
"tX                                                                                                        tX",
"tX                                                                                                        tX",
"tX                                                                                                        tX",
"tX                                                                                                        tX",
"tX                                                                                                        tX",
"tX                                                                                                        tX",
"tX                                                                                                        tX",
"tX                                                                                                        tX",
"tX                                                                                                        tX",
"tX                                                                                                        tX",
"tX                                                                                                        tX",
"tX                                                                                                        tX",
"tX                                                                                                        tX",
"tX                                                                                                        tX",
"tX                                                                                                        tX",
"tX                                                                                                        tX",
"tX                                                                                                        tX",
"tX                                                                                                        tX",
"tX                                                                                                        tX",
"tX                                                                                                        tX",
"tX                                                                                                        tX",
"tX                                                                                                        tX",
"tX                                                                                                        tX",
"tX                                                                                                        tX",
"tX                                                                                                        tX",
"tX                                                                                                        tX",
"tX                                                                                                        tX",
"tX                                                                                                        tX",
"tX                                                                                                        tX",
"tX                                                                                                        tX",
"tX                                                                                                        tX",
"tX                                                                                                        tX",
"tX                                                                                                        tX",
"tX                                                                                                        tX",
"tX                                                                                                        tX",
"tX                                                                                                        tX",
"tX                                                                                                        tX",
"tX                                                                                                        tX",
"tX                                                                                                        tX",
"tX                                                                                                        tX",
"tX                                                                                                        tX",
"tX                                                                                                        tX",
"tX                                                                                                        tX",
"tX                                                                                                        tX",
"tX                                                                                                        tX",
"tX                                                                                                        tX",
"tX                                                                                                        tX",
"tX                                                                                                        tX",
"tX                                                                                                        tX",
"tX                                                                                                        tX",
"tX                                                                                                        tX",
"tX                                                                                                        tX",
"tXtXtXtXtXtXtXtXtXtXtXtXtXtXtXtXtXtXtXtXtXtXtXtXtXtXtXtXtXtXtXtXtXtXtXtXtXtXtXtXtXtXtXtXtXtXtXtXtXtXtXtXtXtX",
"tXtXtXtXtXtXtXtXtXtXtXtXtXtXtXtXtXtXtXtXtXtXtXtXtXtXtXtXtXtXtXtXtXtXtXtXtXtXtXtXtXtXtXtXtXtXtXtXtXtXtXtXtXtX",
"tXo O o o O O O O O O + + O + + + + + + + + + + + + + + + @ + + + + O + + O O O O o o o X o X X X . . . . tX",
"tXo o o O O O O O O O + + + + + + + + + + @ + @ @ @ + @ @ @ @ + @ @ @ @ + + + O O O O o o X X X X . . . . tX",
"tXO O O O O O O + O + + + + + + @ @ @ @ @ @ @ @ @ # @ # @ @ # @ @ @ @ @ @ @ + + + O O o o o o X X X X . . tX",
"tXo O O O O O + + + + + @ @ @ @ @ @ @ @ # @ # @ # # # # # # # # $ # $ $ # # @ @ + + O O O o o X X X X . . tX",
"tXO O O O + + + + @ @ @ @ @ @ @ # # # # # # $ $ $ $ $ % % % % % & % % % $ $ # @ @ + + O O o o o X X X . . tX",
"tXO O + + + + + + @ @ # # # # # # # $ $ % $ % % & & & & & * * = > ; = * & & $ # @ @ + + O O o o o X X X . tX",
"tXO O + + + + @ @ # # # # $ $ $ $ % % % & * , 6 6 8 8 8 8 7 6 7 6 8 6 > = & % $ # @ + + O O O o o o X . . tX",
"tXO + + + @ @ # # $ $ $ % % & & & & = , 7 9 8 8 8 8 w 9 w 9 w 9 0 9 7 , ; * % $ # # @ @ + + O O o o o X X tX",
"tX+ + + @ @ # # $ $ % % & * = > > < 8 w 8 7 7 7 7 6 6 w 9 8 7 7 8 8 9 7 , = * % $ $ # # @ + + + O o o X X tX",
"tX+ + @ @ # # $ $ % & & * ; ; , 9 r r w 7 7 7 8 6 6 w 0 r r r w 0 w 0 0 6 , * & % % % $ # # + + O O o o X tX",
"tX+ @ @ # # $ % % & & = ; > , 7 w r w 9 8 8 7 8 8 8 w r r r r 9 r r w B 8 8 6 = = * & % $ # @ @ + O O O o tX",
"tX+ @ @ # # $ % & & = ; ; < 7 < 8 r w r w 8 w 8 8 8 9 r w w w r w r w w r w w 7 > = & & % % $ # @ + O O o tX",
"tX@ @ # $ $ % % & ; > , 7 7 9 7 8 9 r 9 8 w w w r 9 r w w w 9 r 9 w 9 8 9 9 r w 7 > = = ; & % # @ + + O O tX",
"tX@ @ # # % % & = ; ; < 7 9 7 7 8 8 r 8 w 0 w r w 9 w w w w 8 7 9 9 9 r 9 7 9 r 9 9 , 6 7 > & % # @ + O O tX",
"tX@ # # $ % & * = = ; 7 9 9 9 9 9 8 9 w w w 8 w r 8 9 e 9 9 9 6 7 7 8 9 w 9 8 9 w w 9 w 9 < = % $ @ @ + O tX",
"tX@ # $ $ & & = = * , 9 0 r 8 e r w r w w 8 w 7 8 8 r r 9 8 9 0 8 8 8 w 8 8 8 w e 0 r 6 7 7 , * $ # @ + O tX",
"tX@ # $ % & * = & & < 6 8 p i w 9 9 8 r 8 w 8 8 9 6 9 w 9 8 8 w 6 0 6 0 0 8 8 w 8 0 9 7 < 7 < ; % $ # @ + tX",
"tX# # $ % * = = = , 6 8 p g i 8 8 8 8 r r 8 p 8 7 7 7 9 8 e 0 8 8 6 8 7 r i w r 9 r 8 8 7 w 7 , = % # @ + tX",
"tX# # % % & = * & 6 6 w f h p w w 8 8 8 r e 8 0 9 9 9 w < 8 8 8 8 6 0 u p p r r B r 9 6 r w 9 , = % $ @ + tX",
"tX# # % & & = = > 7 8 0 i p 0 r r 0 8 8 w r 8 w r r 8 7 7 8 r 8 6 6 6 0 s <.d d r 0 8 6 0 9 8 , = % # @ + tX",
"tX@ # $ % * = = < 8 9 8 6 8 w w 8 6 8 6 6 w w 8 0 e 8 8 8 t t < 0 0 > 7 V 3.2._ r 7 8 w 6 , , , * % # # + tX",
"tX# $ $ % & = , 7 9 w w 7 w w r 8 6 7 8 7 w w w w w t w e w 0 8 7 6 7 , q f s ) w 6 6 8 8 , ; = & % $ @ @ tX",
"tX# # % & & * > 8 7 w w w 8 0 7 8 8 8 8 6 w 0 8 8 w r w r 0 8 8 q 8 p 7 6 8 9 r 7 w 8 8 9 7 = * & % $ # @ tX",
"tX@ # $ & & = < 8 7 8 8 0 8 8 8 7 8 0 8 7 7 7 7 8 7 r 8 w 9 7 8 0 0 w 8 8 7 8 w 8 0 w 8 7 6 = * & % # # @ tX",
"tX@ # % % * * < 7 8 8 B 8 r 0 w 7 0 6 7 8 < 7 7 w 8 8 6 9 9 w r w e e 8 7 r e 9 8 8 8 8 8 6 = & & % $ # @ tX",
"tX@ # $ % & = 6 7 8 8 8 e 0 8 8 7 8 7 B 9 8 9 8 8 e 6 w 8 9 w 9 w 8 0 8 8 w 6 8 9 0 8 8 8 6 = * & % $ # @ tX",
"tX@ # $ % & = 8 8 8 8 9 7 8 0 t 6 6 w 9 ~ 7 9 9 6 8 8 8 9 7 8 9 7 8 8 8 w 8 8 8 9 6 0 6 8 < ; = & % # # @ tX",
"tX@ # $ % & = 6 8 9 9 9 8 7 8 0 w 8 8 w r 7 9 8 8 7 9 r w 8 8 8 0 w 0 8 q V 7 8 8 7 8 7 8 6 = = & % $ # # tX",
"tX@ # # % & & < 8 9 7 < 8 0 8 0 0 0 0 7 7 7 9 9 8 8 9 a 8 8 8 8 w w 0 6 0 w 8 7 7 8 7 7 6 6 = = * & $ # @ tX",
"tX@ # # $ % * , < 8 8 7 0 8 8 8 7 7 w 8 r 8 9 w 8 8 8 r w 8 w 8 0 0 e 8 6 8 7 8 8 0 < 7 7 < = ; * % % # @ tX",
"tX+ @ # $ % & ; 7 9 8 < 8 w 8 8 8 8 0 7 7 8 7 9 9 8 9 8 9 8 r 9 0 r 8 8 7 6 7 8 8 9 7 8 7 , = = = & $ # # tX",
"tX+ @ # # % & & 6 9 8 8 7 w 8 8 w 9 w 8 8 9 9 8 9 9 0 7 7 < 9 8 9 9 7 0 6 7 7 8 8 7 7 7 8 > > ; * % % # # tX",
"tX+ @ @ # % & & , 6 6 7 8 6 8 6 7 8 w 7 9 w 9 8 9 8 e 7 7 , 6 w 8 9 6 8 9 7 w 8 8 7 7 < < , , ; & & $ # @ tX",
"tX+ @ @ # $ % & = 6 6 6 6 6 8 8 8 7 7 9 7 9 9 8 9 8 8 7 7 8 7 7 8 9 w < 0 r 8 7 7 < 7 7 < < < ; & % $ # @ tX",
"tX+ @ @ # $ % * & , 6 6 8 6 w 7 9 7 < 7 9 9 7 7 8 < 7 7 8 8 9 9 8 i w 9 7 w 7 7 < 7 7 9 < 7 < ; * % # # @ tX",
"tX+ $ $ # # % % & * 7 7 8 8 9 0 8 8 w 8 8 7 8 7 7 , , 8 r t ) <.g i w 6 8 e 8 7 < 7 7 y 8 8 < > & % $ # @ tX",
"tX# # % $ $ $ % & & , 0 e 8 9 e 8 8 e 9 7 7 8 8 6 7 6 9 r h 4.1.s w 9 7 0 7 7 7 7 7 p 8 9 8 < > * $ # # + tX",
"tX@ + $ & % % % & ; ; 8 9 8 7 7 < < 8 8 7 8 8 7 6 9 8 8 ^ ,.d r w 9 < < < 8 7 7 7 7 < 7 7 < > * % $ # @ @ tX",
"tXO + + % = = = * ; > > 8 w 7 8 7 9 9 9 9 8 w 7 w e w r ~ ~ r r 0 8 7 7 r 8 8 8 8 < < 7 , > * & $ # @ @ + tX",
"tX+ O @ $ & & = & * > > , 9 8 9 7 r 9 8 9 8 7 8 w 8 9 w 9 r w 8 8 7 8 w r 8 e 8 7 , , > = & & $ # # @ + + tX",
"tXO O + + # $ = & = > = ; 6 7 8 8 w 9 8 w 8 w 9 8 7 8 9 9 r r 9 w r 0 B w w 9 < < , = & & & % $ # # @ + + tX",
"tXo O O + + + # & = , , = = > 6 6 6 8 0 r r w 0 9 9 9 w r r u r r w w 9 9 8 , , , = & & % $ $ # @ @ @ + O tX",
"tXo o o O O + + @ $ & , 7 < , < 6 8 8 w 9 r r r w r r r w r r r w r w 8 7 > > > = * & % % $ # # @ + + O O tX",
"tXo o o o O + + @ @ # $ % = = & * ; 6 8 8 r r u ~ a i i i i i r r u r 6 > = * & & & % $ # # # @ @ + + + O tX",
"tXX X o o o O O + + @ # # $ $ $ % % & > 8 8 r u Z a i i i u u w 6 6 , , = * % % % $ $ # # @ @ @ + + O O O tX",
"tXX X o o o o O O O + + @ # # # $ $ % % & = > 6 7 8 7 7 7 6 , = * & & % & % % $ # # # # @ @ + + + O O O O tX",
"tXX X X o o o o O O O + + + @ @ @ # # $ $ $ % & % = & & * & & & % $ % $ $ $ $ # # # @ @ @ + + + + O O O o tX",
"tXX X X X o o o o O O O + + + + @ @ # # # # $ % % % $ % % $ $ $ $ $ # # # # # # @ @ @ @ + + + O O O O o O tX",
"tX. . X X X X o o o O O O O + + + @ @ @ @ # # # $ # # $ # $ $ # # # # # # @ # @ @ @ @ + + + + O O O O o o tX",
"tX. X X X X X o o o o O O O O O + + + + @ @ # @ @ # @ # # # # # @ @ # @ @ @ @ @ + @ + + + + O O O O o o o tX",
"tX. . . X X X X o o o o o O O + O + + + + + @ @ @ @ @ @ @ @ @ @ @ @ @ @ + @ + + + + + + O O O O O o O o o tX",
"tX. . . . X X X X o o o o o O O O O O + + + + + + @ + @ @ @ @ + @ + @ + + + + + + + O O O O O O o o o o o tX",
"tXtXtXtXtXtXtXtXtXtXtXtXtXtXtXtXtXtXtXtXtXtXtXtXtXtXtXtXtXtXtXtXtXtXtXtXtXtXtXtXtXtXtXtXtXtXtXtXtXtXtXtXtXtX",
"tXtXtXtXtXtXtXtXtXtXtXtXtXtXtXtXtXtXtXtXtXtXtXtXtXtXtXtXtXtXtXtXtXtXtXtXtXtXtXtXtXtXtXtXtXtXtXtXtXtXtXtXtXtX",
"tXO O + + + + + + @ @ @ @ @ # @ @ # @ # # # # # # # # # # # # # # @ @ # @ @ @ + + + O O O o o o X X X X . tX",
"tXO + + + + @ + @ @ @ # @ # # # # # # $ $ # $ $ # $ # $ $ $ # $ # # $ # $ # @ @ @ + + + O O o o o X X X . tX",
"tX+ + + @ + @ @ @ @ @ # # # # # $ $ $ $ $ $ $ $ $ % $ $ % $ % $ % % % % $ $ # # @ @ + + O O o o o X X X . tX",
"tX+ + + @ @ @ @ # # # # $ $ $ $ $ $ $ $ % % % % & % & % & % & & * & & & & % % # # # @ + + O O O o o X X . tX",
"tX+ @ @ @ @ @ # # # # $ $ $ % $ % % % & % & & & * * - * * - - - - : : - * * % % # # @ @ + + O O o o o X X tX",
"tX@ @ @ # @ # # # $ $ % % % & & & & & * * * : : : : 1 1 1 2 1 4 l l l 3 1 - * % % # # @ @ + O O O o o o X tX",
"tX@ @ @ # # $ $ % % % & * & * * * - - - : 4 z V V Z Z Z Z Z C Z Z Z B z 2 : - & & $ # # @ @ + + O o o X X tX",
"tX@ @ # # $ % $ % * * - - : : : 1 1 2 N C R R R R C R ` R R ` R ` R Z z l 1 : * & % % # # # + + O O o o o tX",
"tX@ # # $ $ % & & * - - : 1 4 z z V Z R A Z C V V Z Z R ` Z Z Z R R R C x l 1 : * & & % % # @ @ + + O O o tX",
"tX# # $ % % % * * : : : 1 l l x R o.O.] C C C A C V A ` o.o.{ ` ` R R R V z 2 1 : - - * & $ # # @ + O O o tX",
"tX# $ $ % % * - - : 1 4 l z x C ` ] ] R Z R Z A Z R ` } { O.' R ` { ` R R R B l 4 2 : - * & % # # @ + + O tX",
"tX# $ % % * * - : 1 3 l l B V B Z } R { ` R ` A A R ` ] ` ` ` ] { { ` ] ] ` ` Z l l 2 : - - * % $ @ @ + + tX",
"tX# $ % & * - : 1 l z x Z Z R Z R R { R R ` ` ` ] ` ] R ` ` ` ] R ] R R R R ] R C z 4 4 5 1 - & % $ @ @ + tX",
"tX$ $ % & - - 1 2 l l B Z R Z Z R R ` R ` A ` ] ` R ] A ` ` A C R R R ] R Z R ] R R x C C l 1 - & $ # @ + tX",
"tX$ % & & - : 2 l 3 l Z R R R R R R R ` ] ` / ` { A ` ' R R ` C Z C R R ` R R R ` ` R R R B 4 : & $ # # + tX",
"tX$ % * - : 1 4 l 1 z R ` ] A { } ] ] ` ` R ` Z R A ] ] / Z A ] R R R R R Z R ` ' R ] Z Z C z 3 * % $ # @ tX",
"tX$ % * - : 3 4 1 1 B C A %.X.` R R R { A R A Z A C R R ` A A R V R V R R R R ` R R R Z B Z B 3 : * % # # tX",
"tX% & * : 1 4 4 1 x V A #.6.@.R R R A { ] / @.` Z Z Z R A ' ` R Z V R Z } @.` { ` { R R C R R z 2 - & $ # tX",
"tX% & * : 1 4 2 3 V C R >.$X#.] ` A A Z ] ' / A A R A ` V R Z A R V R } %.%.{ ] ` ` R C } ` R x 4 : & % # tX",
"tX% & * - 1 4 l l C R R +.#.` ] } R Z A R ..R ` ....A Z C R ] Z V V V R -.#X;.:.] R R C R R R B 4 - & $ # tX",
"tX% & - - 1 4 4 x R R R C Z ` A A V A C Z ` ` Z ` / Z A Z @.| V R R z Z $.iXuX5.] R C R Z B x x 1 - & % # tX",
"tX% & - : 1 l z Z R ` ] Z ` ] ] Z C Z Z V / ` ` ] ] [ ` ' ` ' A C V Z N Z ;.;.:.` C V Z Z N l l 1 - * % $ tX",
"tX% & * - 1 2 z Z Z R ` ` Z R Z Z R Z A C / / / Z ' } R { R A R / Z @.Z C Z R { Z R R R A V 3 2 : - & % $ tX",
"tX% & * : 1 3 N A C A Z ` Z Z R Z Z / Z C Z C C Z Z } R ] R Z Z ` ( ` R Z Z Z ` R R R R Z C 2 3 : - & % $ tX",
"tX% & * - : 4 B Z R R R R ] ` ` Z R C C Z C C A R A Z C ` R ` ] ` ' ] A Z ' ` R R R Z Z Z V 2 1 1 - * & $ tX",
"tX$ & * - 2 4 C Z Z R R R R Z R Z A Z ` A Z ` Z A ' V ` A ` ` R ' R ` Z A A Z Z ` ` R R Z B l 1 : - * & $ tX",
"tX$ % & - 1 l Z R A R R C Z R | C C ` ` %.Z R R C Z A A A C Z ` Z Z A Z ] A Z Z A C R C Z V l 4 1 - & % $ tX",
"tX$ % * - 1 4 V R R R R R Z R R ` R A ' ` Z R A A Z ` ] ` Z Z A A ` ` Z A X.Z Z Z C A C R V 3 l 1 - * & % tX",
"tX$ % & - : 1 N R A C V Z R Z R R A R Z Z Z R R A A A =.R A ` Z ] ] R C A / Z Z C R C Z C V 4 4 1 - * % $ tX",
"tX$ % & * - 1 x C Z Z Z ` R A A Z Z R A ] Z R R A R / ] ` A ` Z ` A ' A C Z Z A Z ` V Z Z N 4 l 2 : - & % tX",
"tX# $ % * - 1 l C R A B Z ` Z Z R Z R Z Z R Z R R Z A A ` Z } ` A } A A Z C Z A Z R Z Z C z 4 l 2 : * & $ tX",
"tX# $ % & * 1 1 V A Z A Z R A Z R R ] R Z R ` R R R ' C C V A Z A ` C / C C C A R Z C Z Z x l l 2 : * & % tX",
"tX# $ % & * : 1 x C V Z Z C Z Z C R R Z R R R A R A [ C C N Z / R R C Z / Z ` A R V C V B x N l 1 : * & $ tX",
"tX# $ $ & * : 1 2 C V C C C Z A R C Z R Z ` A Z R R R C Z A Z Z A ` R B A ` R C V V Z Z N N B l 1 - * % % tX",
"tX# # $ % & - 1 1 z C C Z C A Z R Z B V R R Z Z Z V V Z Z Z R R Z X.] R Z R R Z C C V A B Z B 5 1 - * % $ tX",
"tX# & * % & * : 1 2 V Z Z Z / / Z Z ` Z Z C Z Z Z x x Z ] +.>.@X6.+.' Z Z ' R V B Z Z  .R R B l 1 : & % $ tX",
"tX& & : * & - - : 1 x / / A R ' R Z ' R Z Z A Z V Z C R { OXpX$X;.` Z Z A Z C V C C &.Z R R V z 1 - & % # tX",
"tX$ # & 1 : - - 1 3 l R ` Z C Z V B R R Z Z Z C V R R R ;.+X:.O.] R V V V R Z Z A Z V Z Z B x 3 - & % $ # tX",
"tX@ # # - 2 4 2 1 l l x A ` Z Z C R R R R Z ` Z R ` R ] %.-.} ] R Z V Z ` R R Z Z B N V x z 2 : * & % $ # tX",
"tX@ @ $ * 1 1 l 1 2 l l B R Z ` Z ` ` R R R C R ` R R ` ] ` R R R Z Z ` ] R ` R C B N l 4 1 : - & % % # @ tX",
"tX@ @ # # % & 2 2 4 l l l V C R Z R R Z R R R R R Z R R R ] } R ` ] ` ` ` R R V N x 4 2 1 : - & & $ $ # @ tX",
"tXO + + @ @ # & : 4 x x 4 4 z Z C C Z ` ] ] ` / A R R ] { } O.] ] ` ` R R R N z x l 1 : - - & & % $ # # @ tX",
"tXO + + + @ # # % * : x C B N N C Z A ] ] O.} } { { } ] ] ] { { ] ] R R R x l l l 1 : - * * & % $ # # # @ tX",
"tXO O O + + @ @ $ $ % * : 2 4 2 2 l C Z ` ] o...=.=.+.[ +.+.+.O.{ +.] C l l 3 1 : : - * * % % % # # @ @ + tX",
"tXo o O O + + @ @ # $ % & & * * - : : l Z R ] ..O.%.+.+.+.} } R Z V x z 4 1 : - - * * & % $ $ # # # @ @ @ tX",
"tXo o O O O + + + @ # # $ % % % & * * : : 4 l B C Z Z Z Z V z 4 1 : 1 : : - * * & & % % $ $ # # @ @ @ @ + tX",
"tXX o o O O O + + @ @ # # $ $ % % % & & * - : 1 1 2 1 1 2 1 : : - - * * * * * & & % % $ $ $ # @ @ @ + + + tX",
"tXX X o o O O O + + + @ @ # # # # % % & & & * * * - - - - - * * * & & & & & % & % $ $ $ # # @ @ @ @ + + + tX",
"tXo o X o o O O O + + + @ @ @ # # # # $ $ % & & & & & * & & & & % & % % $ % $ % $ $ # # # @ # @ + @ + + O tX",
"tXX X o X o o o O O + + + + @ @ # # $ # $ $ $ $ % % % % % % % % % % $ $ $ $ $ # # # # # @ @ @ @ @ + + O O tX",
"tX. X X o o o o O O O + + + @ @ @ @ @ # # # $ $ $ $ % $ $ % $ % $ $ $ $ # $ # # # # # @ @ @ + + + + + O O tX",
"tX. . X X X o o o O O O + + + + + @ @ @ @ # # # $ # $ # # $ $ $ # $ $ # # # # # # @ @ @ @ @ + + + O O O O tX",
"tXtXtXtXtXtXtXtXtXtXtXtXtXtXtXtXtXtXtXtXtXtXtXtXtXtXtXtXtXtXtXtXtXtXtXtXtXtXtXtXtXtXtXtXtXtXtXtXtXtXtXtXtXtX",
"tXtXtXtXtXtXtXtXtXtXtXtXtXtXtXtXtXtXtXtXtXtXtXtXtXtXtXtXtXtXtXtXtXtXtXtXtXtXtXtXtXtXtXtXtXtXtXtXtXtXtXtXtXtX",
"tX@ @ # @ @ # # # # # $ $ $ $ $ $ % $ % % % % % % % % % % % % % % $ $ $ $ $ # # # @ @ + + + O o o o o X X tX",
"tX@ @ @ # # # # $ $ # $ $ % $ % % % % & & % % & & % & & % & & % & % & & % % $ $ # # @ + + + O O o o X X X tX",
"tX@ @ @ # # # # $ $ $ % % % % & & & & & & & * & & * & * * * * * * * * * & & % % $ # # # @ + O O O o o X X tX",
"tX@ # # $ # $ $ $ % % % % & & * & & * * * - * * - - - - : - : - : : 1 : : * * & % $ # # # + + + O O o X X tX",
"tX# # # # # % $ % % % & & * * * - * - - - - 1 : 1 1 1 1 1 3 3 j j k j 3 3 : - * & % $ # @ @ + + O o O o X tX",
"tX# # $ $ % % % & & * * - - - - - : : : 1 1 3 j k k k k c v c n J H H n k j : - * % % $ # # @ + + O O O o tX",
"tX# $ $ $ % & & * - - - : : : 1 1 1 3 j k n T Q Q *.a.a.a.w.! *.u.u.E K n k 3 : - * & $ $ # @ @ + + O o o tX",
"tX$ $ % % & * * - : 1 1 j j k k k c n E Q s.i.s.a.w.d.s.s.s.g.s.s.g.w.T M c j 1 - * & & % $ # # @ + + O o tX",
"tX$ % % & & - - : 1 3 j k v M J K W a.s.u.a.! Q Q w.u.s.s.u.*.*.a.a.a.w.E M c j 1 : : * * & $ # @ @ + + O tX",
"tX$ % & * - - 1 1 3 j k c n H T s.V.V.j.! ! ! a.! Q s.g.B.N.N.g.g.g.s.a.! T v c j j 3 1 - * & % $ # @ + O tX",
"tX% & & * : : 1 j k c n H K E ! g.x.g.s.i.i.u.a.u.s.g.V.c.C.j.d.j.c.j.g.i.u.W H n c k 3 1 - * % $ # @ @ + tX",
"tX% & * - : 1 3 k c n M T E Q Q a.V.d.c.g.a.d.a.s.s.g.x.g.g.x.j.j.j.g.j.j.j.j.w.J H c j j 1 1 * & $ $ # @ tX",
"tX& & - : 1 3 k c D T T w.*.s.w.a.s.c.d.a.g.j.g.j.d.j.d.d.g.g.j.s.j.s.i.d.s.x.g.! T n H M c j : - % $ # @ tX",
"tX& * - : 3 j k v H J E a.s.a.*.a.a.x.s.g.g.g.x.g.s.j.s.g.g.i.! i.s.d.j.s.i.s.x.s.s.E Q *.J k 3 - & % $ # tX",
"tX& * - 1 3 k c H n H *.i.s.u.s.a.i.s.g.j.g.g.g.N.s.s.k.s.s.s.*.u.*.s.s.g.s.u.d.g.g.s.g.a.Q H j : * & $ # tX",
"tX& - : 1 k c M M k E i.g.x.u.N.v.j.j.g.d.d.g.*.s.i.x.N.h.u.f.j.i.u.i.d.s.i.s.g.k.s.x.*.w.! T c 1 - & $ $ tX",
"tX* - : 3 k c n c v W ! a.S.b.g.s.d.s.c.i.d.s.*.i.! a.d.g.i.u.s.! s.Q s.f.i.a.g.a.g.a.! Q w.E n j : - & $ tX",
"tX* - 1 3 c H n c T Q u.F.7Xm.s.s.s.a.x.j.s.M.s.w.u.! d.a.g.d.i.i.Q i.u.N.M.g.N.j.j.a.a.w.s.w.T n 3 - & % tX",
"tX- : 3 j c M n v W ! s.6XfXS.h.d.s.i.u.c.h.d.s.a.s.s.f.Q d.u.i.i.Q s.B.A.S.x.x.j.j.i.! B.z.a.E n j : & % tX",
"tX- : 1 j k n H J *.u.s.Z.M.d.N.c.d.*.i.s.v.i.k.c.N.i.*.! d.g.i.! Q Q i.%XdX=X=Xx.s.a.w.p.s.*.E n j - * % tX",
"tX* : 1 j c H n E i.s.a.! a.g.d.s.Q i.*.! j.g.i.d.h.u.i.*.m.n.Q s.d.T w.m.hXgX7Xx.u.u.s.! E E T n 3 : * % tX",
"tX* : 1 3 c M T u.s.g.x.*.g.j.j.u.! ! *.Q d.k.g.g.j.b.h.k.j.h.a.*.Q ! E *.*X&X5Xg.*.Q u.u.E H H c 3 : * & tX",
"tX* : 1 j c v T u.w.g.s.g.i.s.u.a.i.i.a.*.s.d.s.*.k.N.s.j.s.u.s.d.i.M.*.! a.s.x.*.s.i.i.a.Q n n k 3 : - & tX",
"tX* - 1 j c v E i.! u.u.d.i.a.u.*.a.s.a.w.*.! ! u.u.v.i.g.d.u.a.d.p.j.s.a.*.u.s.i.d.s.u.u.Q n n k 3 : - & tX",
"tX* : 1 j k n E *.a.i.d.s.j.g.h.*.a.w.Q a.Q w.a.s.s.a.Q s.g.g.j.h.j.h.u.*.j.j.s.u.i.a.a.a.Q c c k 3 : - * tX",
"tX* - 1 j c M ! *.u.a.a.j.d.a.s.*.i.u.j.a.u.g.*.u.j.W f.i.g.g.d.j.i.h.u.s.s.w.a.d.g.s.i.u.Q M c k 3 : - & tX",
"tX& - : 3 c M u.a.a.i.i.*.*.s.n.! Q g.g.m.u.s.d.Q p.a.s.s.! i.s.! a.i.u.g.u.*.a.i.! s.! u.W H M k j 1 - * tX",
"tX& - : 3 c n W a.s.s.a.a.u.s.f.d.i.i.g.k.a.s.a.a.*.g.j.g.*.u.u.s.g.s.u.s.b.*.a.*.! s.! a.Q n M c j 1 - * tX",
"tX* * : 1 k c E a.d.*.Q i.s.u.s.s.p.s.w.*.*.s.i.i.u.s.G.s.i.s.a.k.k.d.! i.d.*.w.! i.! u.w.W H D k 3 1 - * tX",
"tX& * - 1 j c E ! u.a.! s.i.i.i.*.u.d.u.x.u.s.g.i.s.s.j.g.a.g.i.d.i.c.a.Q a.*.a.a.g.Q w.w.E D H n j 1 : * tX",
"tX& & - 1 3 k M ! s.a.W u.d.u.u.i.*.s.a.w.a.w.s.s.a.s.i.d.u.N.d.s.c.i.u.! ! a.u.u.a.*.u.w.T H H v k 1 - * tX",
"tX% & * : 1 k c Q a.u.a.*.d.i.a.d.s.j.a.a.a.d.i.i.s.h.! ! Q s.u.s.s.Q h.*.w.! i.i.*.! u.w.K K H c k 1 : * tX",
"tX% & * - 1 k c T w.Q *.u.! *.! *.i.g.*.a.g.g.u.s.i.v.! ! E ! d.i.d.Q a.s.w.s.i.a.Q ! Q E E E J v j 1 - * tX",
"tX% & & - 1 j k v ! Q ! ! ! *.d.u.! ! s.a.s.i.u.s.i.*.Q ! i.u.*.i.d.d.W f.j.i.! ! Q *.u.E E E J k j 1 - * tX",
"tX% & & * 1 3 c k T Q ! w.*.a.w.d.*.Q ! i.s.u.! i.! Q *.u.a.a.s.u.b.x.s.*.d.a.*.! ! Q f.W w.E H c 3 : - & tX",
"tX% : 1 * : 1 k c v ! *.w.u.s.h.u.u.h.i.u.! u.w.u.E T u.x.b.6XsX7XC.g.*.*.h.i.! W u.*.D.a.a.W J c 3 : - & tX",
"tX- - j 1 : 1 j k k T h.h.a.a.k.i.*.h.s.*.*.u.a.Q ! Q d.V.8XcXfX&Xg.i.w.f.u.! Q Q ! M.w.g.a.Q K c 3 : * % tX",
"tX& & : v j 3 j k n H i.d.u.! w.Q Q a.i.*.u.i.! Q i.a.s.&XaX5XC.j.s.Q Q Q a.a.! a.! Q w.u.Q K c 3 : - & % tX",
"tX# $ % 3 k n M c J K T a.d.*.a.w.a.s.s.d.a.g.*.s.j.d.x.G.%XN.x.f.a.Q *.g.i.i.a.u.Q E Q E J v j 1 - * & % tX",
"tX# $ & 1 k c M k v J J E s.a.s.*.g.g.u.s.a.! i.g.a.d.g.g.x.g.a.i.u.u.g.x.a.g.i.Q E E J H c k 3 : - & % % tX",
"tX$ $ $ % = 1 v v n K H J Q ! a.*.s.g.i.d.i.g.i.a.u.a.d.s.x.B.d.g.j.g.j.j.d.d.Q E E D c k k 3 : - * & % $ tX",
"tX@ @ # $ $ % - k n E T M M K *.! ! i.g.x.j.h.d.s.g.s.x.N.B.C.c.x.g.g.g.s.a.E T T H c j j 1 : - * & % $ $ tX",
"tX+ @ @ @ $ $ % * 1 j T Q E T E w.*.a.g.j.C.c.V.j.j.B.x.g.x.c.N.j.x.g.a.*.T J J H c k 3 1 : : - & & % $ # tX",
"tX+ + + @ # # % % * - 1 k m m n v H ! a.s.c.N.N.G.G.Z.B.A.A.A.N.x.C.j.Q J H n c k j 3 1 : - - & & % $ $ # tX",
"tXO + + + @ # # $ % & * - : 1 1 j j k H i.a.x.V.C.S.Z.A.C.B.B.a.a.Q E J M k j 3 3 1 : : - * & % % $ $ $ # tX",
"tXO O + + @ @ @ # $ % % & * * - - 1 3 j k n J W *.*.*.*.*.Q T H c k k k k 3 3 1 : : - * & & & % $ $ # # @ tX",
"tXo O O + + + @ # # $ $ % & & * * * : : 1 3 j k c n c c c c k j 3 3 1 1 1 1 1 - - - * & & % % $ $ # # # @ tX",
"tXo o O O + + @ @ @ # # $ $ % % & & * * : : 1 3 3 3 1 3 3 3 1 1 1 : : : - : - * - & & & % % $ $ # # # @ @ tX",
"tXo o o O O O + @ @ # # # $ $ % % & & * * * - - : : : : : : : - - - * * * * * * & & & % % $ $ $ # $ # @ @ tX",
"tXo o o o O O + + + @ @ # # $ $ $ % % % & & * * * * - - * * - * * * * & & & & & % % % % $ $ # # # @ @ @ @ tX",
"tXX X o o O O O + + + @ @ # # # $ $ $ % % % & & & * & & * * & * & * & & & & % % % % $ $ $ # # # @ @ @ + + tX",
"tXX o X o o o O O + + @ @ @ @ # # # $ $ $ % % % & % % & & & & & & % % & % % $ % $ % $ # # # # @ @ + + @ + tX",
"tXtXtXtXtXtXtXtXtXtXtXtXtXtXtXtXtXtXtXtXtXtXtXtXtXtXtXtXtXtXtXtXtXtXtXtXtXtXtXtXtXtXtXtXtXtXtXtXtXtXtXtXtXtX",
"tXtXtXtXtXtXtXtXtXtXtXtXtXtXtXtXtXtXtXtXtXtXtXtXtXtXtXtXtXtXtXtXtXtXtXtXtXtXtXtXtXtXtXtXtXtXtXtXtXtXtXtXtXtX",
"tX# # $ $ $ $ % % % % % & & & & * & & * * * * * * * * * * * * & * & & & & % % % $ $ # # @ @ + + O o o o X tX",
"tX# # $ $ % % % % % & & * & * * * - * - - - - - - - - - - - - - - - - - * * & % % $ $ # @ @ + + O O o o X tX",
"tX$ $ $ $ % % % & & & * * * * - - - - - - : : - : : : : : 1 1 1 : 1 1 : : : - * & % $ $ # @ @ + + + O o o tX",
"tX$ $ % % % % & & * * * - - - - : : 1 : 1 1 1 1 3 3 3 3 3 3 3 j j j j j 3 1 : - * & % % $ # @ @ + + O o o tX",
"tX% $ % % & & * * - - - : : 1 1 1 1 1 3 3 3 j j k k k c c c c b b S S b c j 3 1 - * & % $ $ # @ + + O O o tX",
"tX% % % & & * - - : : 1 1 1 3 3 3 j j j k k b S S F F F F P L Y 8.8.8.Y F b k 3 : - * & % $ # # @ + + O O tX",
"tX% & & * * - - : 1 3 3 j j k k c c c b F U q.y.H.K.U.I.U.K.J.I.I.I.y.0.I F c j 1 : - * & % $ # # @ + O O tX",
"tX& & * - - : 1 3 j k c b S S F S L I r.J.R.R.R.U.K.Q.Q.T.R.~.R././.K.e.8.L b c j 1 : - * * % $ # # @ + O tX",
"tX& * * - : 1 3 j k c S S L Y 0.0.l.I./.U.I.J.H.l.K.I.Q.R.U.K.K.I.T.I.K.t.Y L b k j 3 1 : - & % $ # @ @ + tX",
"tX* - - 1 1 3 k c b S F P Y 8.e.Q.[.-X~.J.H.K.U.l.l.~.Q.-X'.{.Q././.R.U.J.0.P F b b c k 3 : - * % $ $ @ @ tX",
"tX* - : 1 3 k k b S F I 8.0.t.H.~.'.~.Q.I.T.I.U.I.R.Q.-X{.-X].Q.(.[.(./.U.U.l.8.Y P S b c 3 : - * % $ $ @ tX",
"tX* : : 3 j k b F F I 8.0.y.H.l.U.{.Q.]./.U./.U.U.Q.Q.'.Q./.~.(.'.].~.(.(.^.^.K.0.8.L S b c j 1 - & % % # tX",
"tX- : 1 3 k c S L 8.0.e.K.I.R.K.I.R.'.Q.U./.~./.(.Q.~.Q.Q.~.~.~.R.(.R.U././.(./.J.0.Y Y 8.P b j 1 - & % $ tX",
"tX- : 3 j c b F I 8.8.l.I.R.I.I.R.R.'.Q./.Q.~.~.~.U.~./.~.^.U.K.T.U./.'./.I./.(.R.R.e.H.I.8.F b 3 : * & $ tX",
"tX: 1 3 k c S P Y 7.Y I.R.R.U.R.U.U.R.~.~.^.R.^.[.Q.Q.^.U.U.R.K.U.K.U.T.~.R.I.Q.^./././.T.y.Y S j : * & % tX",
"tX: 1 j c S L Y 8.L e.I.~.(.I.[.`.~.~.~./.Q.Q.K.Q.U.~.].!.Y.Y.~.U.I.Y.^.R.U.R.~.).R.'.K.I.H.e.L c 1 - * & tX",
"tX: 3 k b F L Y L P y.K.U.1X.X/.Q.Q.Q.].U.Q.Y.I.U.l.Q.Q./.U.U./.K.U.y.R.!.I.T.~.U./.I.K.y.K.t.I S k 1 - & tX",
"tX1 3 k b L 8.Y L e.l.I.2XyX:XR.U.Q.I.'.].Y.<XQ.K.I.J.Q.U.Q.R.Y.U.l.U.I.[.<X~.].~.'.I.U.K.R.K.e.P b 3 : * tX",
"tX1 j k S L Y I P l.J.R.tXxX2X).Q.Q.U.I.'._.R.R.I.Q.Q.Q.y.Q.I.U.U.l.Q.{.,X1X(.[.(.(.I.K..X'.T.t.Y b j : * tX",
"tX1 j c b F Y 8.9.I.I.R.:X<XQ.'.{.Q.I.U.R..XU.^.{.{.U.L.J.U.~.U.H.J.l.U.4XzXqXwX(.R.U.K.Y.R.K.t.I b 3 : * tX",
"tX1 j k S F Y Y t.U.Q.U.J.U.!.Q.U.l.I.K.J.~./.I.Q.!.Y.I.I.:XXXH.R.R.q.K.:XnXbXyX[.I.K./.J.t.t.e.P b j 1 - tX",
"tX1 j c b L 8.q.I.U.~.(.K.~.(.^.I.H.K.K.l./.^.~.~.(.|.R.^.`.^.U.K.y.K.r.I.9X4XeX(.K.H.I.I.y.8.8.F b j 1 - tX",
"tX1 3 c S L P 0.I.K./.R.^.U.R.U.I.U.I.U.I.R.!.R.I.^.{.Q.].U.I.Q.^.P.:XL.J.U.Q.(.K.R.I.I.I.H.I I F c j 3 : tX",
"tX1 3 k b L P t.U.J.I.I.R.I.U.U.K.U.Q.I.K.I.H.J.K.I.{.U.~./.I.I.!.Y.^.Q.I.I.I./.T.~.R.U.K.H.I P F c j 1 : tX",
"tX1 3 k S F I t.I.U.T./.Y.^./.~.K.U.J.H.I.l.J.U./.E.I.H.Q.R.~.~.^.^.^.I.I.^.).U.U.I.I.U.T.H.P L F c k 1 : tX",
"tX: 3 k b L Y J.K.I.U.T.`.R.U.R.K.U.I./.I.U./.I.I.^.y.Q.Y././.R.).U.!.I.U.R.K.U./.!.R.U.U.l.Y L F c j 3 : tX",
"tX: 3 j b L 8.I.T.T.T.U.I.K.R.|.J.H.~.~.:XI.U.Q.H.Y.U.Q.U.J.U.Q.K.I.U.I./.U.K.U.I.J.R.J.I.l.8.Y F b j 3 : tX",
"tX: 1 j b F Y l.T./.U.U.U.I.Q.E.Q.U.U.^.].I.R.U.I.K.Q.(.R.I.U.I.U.~.R.U.Y..XI.I.K.K.R.J.I.H.Y 8.L b k 3 : tX",
"tX- 1 j c S P r.U.R.I.l.I.Q.I.U.R.E.R.K.K.K./.U.U.U.R.3XQ.U.Q.I.(.^.Q.J.U.Q.K.J.K.I.J.K.J.l.Y 8.F b k 3 : tX",
"tX- 1 3 k S L e.H.I.U.J.R.I.Y.U.K.I.~.I.~.U.T./.U.U.R.`.~.I.~.U.R.Q.`.I.H.I.K.I.I.!.H.K.K.e.7.8.I F k 3 : tX",
"tX- : 1 j b F 8.J.R.I.l.I./.I.I.P.I.U.I.K.U.K././.I.U.U./.I.].Q.R.{.U.U.K.J.I.U.I.R.I.I.K.e.8.8.P S c j 1 tX",
"tX* : 1 j c F L H.U.I.U.I.R.I.U././.].I.U.U./.U.U.R._.J.J.l.R.I.U.R.H.E.J.K.K.U.U.K.H.I.K.q.q.8.P S c 3 1 tX",
"tX* - 1 3 k S L e.J.l.I.I.K.I.J.K.I.R.I.U.Q./.I.Q.I.}.H.J.r.K.Q.U.Q.J.U.Y.K.R.Y.I.l.K.y.y.e.e.0.L S k 3 : tX",
"tX* - : 3 k b F P J.l.H.K.H.K.R.U.H.K./.I.Y.U.I.R.I.U.H.K.I.L.I.Y.R.Q.y.W.(.U.H.K.l.K.K.t.y.y.8.F b k 3 : tX",
"tX* - : 1 j b L F q.H.H.K.K.R.K.Q.K.y.H.U.R.I.K.U.J.l.J.I.U.U.Y.I..X`.Q.K./.I.I.J.J.J.Y.y.K.l.8.L b j 1 : tX",
"tX* j j 1 j c F F P H.K.K.K.E.^.I.I.^.I.U.J.I.K.L.r.r.I.(.:XrXlXyX;X^.K.I.!.U.H.t.I.P.oXT.T.l.8.L b j 1 - tX",
"tX3 j n k j k b F F e.^._.I.U.^.I.I._.Q.I.K.I.I.H.J.H./.[.jXmXvX0X/.U.J.E.I.K.H.J.H.:XK.R.R.l.0.L c j 1 - tX",
"tX: - 3 F D b b F Y 8.U.Q.U.H.K.l.l.I.U.K.I.U.I.l.U.U.R.0XkXeX-X~.R.l.H.l.T.I.I.I.K.l.K.I.l.q.L b j 1 : * tX",
"tX% & - v P Y U L 9.0.e.I./.I.I.K.U./.R.Q.I.Q.L./.^.E.(.3X4X[.'.~.I.l.K.~.U.T.U.I.y.y.H.t.8.I S k 3 1 - * tX",
"tX% & - k F G Y L P 8.0.y.R.I.R.K.~.~.I.U.U.J.U.(.U.Q./.~.(./.U.I.K.I.~.(.R.^.I.H.t.t.8.Y L S c j 1 : * & tX",
"tX% & * - 1 k P P Y 0.8.8.H.K.U.I.U.R.U./.U.~.U.U.K.I././.'. X/.^.]././.(./.R.l.t.e.8.L F S c j 3 1 - * & tX",
"tX# $ % % & - 3 D I r.q.Y 8.8.I.H.H.I.~.'.'.!.Q.U././.(.].{.-X(.'./.^././.U.r.e.e.8.L F b c j j 1 - * * & tX",
"tX@ # # $ & & - 1 k S q.l.t.r.r.K.K.I.(.~.;X{.{.'.].{.(.~.'.{.[.(.(./.U.K.r.8.9.8.L S b c j 3 1 : - * & % tX",
"tX@ @ # $ % % & - : 3 k D U U U I 8.K.I.Q.].-X{.3X3X>X{.:X>X,X{.[.;X].K.8.8.P L F b c k j 3 : : - * & & % tX",
"tX+ @ # # # $ % & * - 1 3 j k c b S F 8.I.R.(.{.-X1X:X>X:X{.{./.I.l.r.8.Y L S b c c j j 1 : : - * & & % $ tX",
"tX+ + @ @ # # $ % & * - - 1 1 3 3 k k S F I 9.y.P.I.K.K.K.H.q.Y L F F S S S c k j 3 3 1 : : - * & & % % $ tX",
"tX+ + + @ # # $ $ % & & * - - : 1 1 3 j c c b F F P P L G L F S b c k k k k j j 3 1 : : - * * & & % % $ $ tX",
"tXO O + + @ # # # $ % % & * * - - : 1 1 3 j k c c b c c c c k k j j j 3 3 3 3 1 1 : : - - * & & % % $ $ $ tX",
"tXO O O + + @ @ # # $ $ % & & * * - - : 1 1 3 3 j j j j j j j 3 3 3 1 1 1 1 : : : - - * * & & % % % $ $ # tX",
"tXo O O O + + @ # # # $ $ % % & & * * - - : : 1 1 1 1 1 3 1 1 1 : 1 : : : - - - - * * * & & % % % $ # # # tX",
"tXo o o O + + + @ @ # # $ $ % % & & & * * - - - : - : : : : : : : : - : - - - * * * * & % % % $ $ $ $ # @ tX",
"tXo o o o O + + + @ # # # $ $ % % % % & & * * * * - - - - - : - - - * - * * & * & & & % % % $ $ $ # # @ @ tX",
"tXtXtXtXtXtXtXtXtXtXtXtXtXtXtXtXtXtXtXtXtXtXtXtXtXtXtXtXtXtXtXtXtXtXtXtXtXtXtXtXtXtXtXtXtXtXtXtXtXtXtXtXtXtX"
};
