/* XPM */
static char * uvsun_xpm[] = {
/* columns rows colors chars-per-pixel */
"54 108 144 2",
"   c #000000",
".  c #00000a",
"X  c #000013",
"o  c #00001b",
"O  c #1c190a",
"+  c #1c1913",
"@  c #000023",
"#  c #00002b",
"$  c #000032",
"%  c #00003b",
"&  c #1c1924",
"*  c #1c1935",
"=  c #1c193d",
"-  c #38330f",
";  c #38332f",
":  c #383335",
">  c #000043",
",  c #00004a",
"<  c #000052",
"1  c #00005a",
"2  c #1c1946",
"3  c #1c194a",
"4  c #1c195d",
"5  c #000063",
"6  c #00006b",
"7  c #000074",
"8  c #00007c",
"9  c #1c1964",
"0  c #38334d",
"q  c #554e16",
"w  c #554e1b",
"e  c #554e23",
"r  c #554e2b",
"t  c #554e34",
"y  c #554e3c",
"u  c #716823",
"i  c #71682a",
"p  c #716836",
"a  c #554e42",
"s  c #554e4e",
"d  c #554e54",
"f  c #554e58",
"g  c #554e62",
"h  c #554e69",
"j  c #55516e",
"k  c #555874",
"l  c #71685e",
"z  c #71726c",
"x  c #717570",
"c  c #000383",
"v  c #000d8c",
"b  c #00118f",
"n  c #001593",
"m  c #001996",
"M  c #001d9a",
"N  c #00219d",
"B  c #1c2c8a",
"V  c #0025a1",
"C  c #002aa5",
"Z  c #002fa9",
"A  c #0032ab",
"S  c #0037b0",
"D  c #003bb3",
"F  c #0042b9",
"G  c #0049bf",
"H  c #38528c",
"J  c #38669e",
"K  c #3869a1",
"L  c #387fb3",
"P  c #004dc2",
"I  c #0052c7",
"U  c #0055c9",
"Y  c #005ccf",
"T  c #005ed0",
"R  c #0063d5",
"E  c #0067d9",
"W  c #006cdd",
"Q  c #0073e3",
"!  c #0079e7",
"~  c #007deb",
"^  c #3885b8",
"/  c #1c8cdb",
"(  c #0081ee",
")  c #0084f1",
"_  c #0089f5",
"`  c #008ef9",
"'  c #0092fd",
"]  c #0099ff",
"[  c #0b9eff",
"{  c #1c9dea",
"}  c #15a2ff",
"|  c #1aa4ff",
" . c #38a4d3",
".. c #29aaff",
"X. c #35afff",
"o. c #55879c",
"O. c #55a1b2",
"+. c #57b8d5",
"@. c #43b5ff",
"#. c #49b7ff",
"$. c #4db9ff",
"%. c #55bcff",
"&. c #5ebfff",
"*. c #65bcc0",
"=. c #63c1ff",
"-. c #6ec6ff",
";. c #7acbff",
":. c #8d8226",
">. c #8d822c",
",. c #8d8231",
"<. c #aa9d2c",
"1. c #aa9d32",
"2. c #aa9d3c",
"3. c #8d8245",
"4. c #8d824f",
"5. c #8d825b",
"6. c #8d946d",
"7. c #8da87e",
"8. c #aa9d42",
"9. c #aa9d4a",
"0. c #aa9d53",
"q. c #aaa45d",
"w. c #aaae65",
"e. c #aab56b",
"r. c #c6b734",
"t. c #c6b73e",
"y. c #c6b742",
"u. c #c6b74b",
"i. c #c6be55",
"p. c #e2d13d",
"a. c #c6ce63",
"s. c #c6d96c",
"d. c #e2d143",
"f. c #e2d64d",
"g. c #e2db52",
"h. c #ffec42",
"j. c #9bcd96",
"k. c #86cfff",
"l. c #92d4ff",
"z. c #9ad7ff",
"x. c #aed8c0",
"c. c #c7e9ff",
"v. c #ebf7ff",
"b. c None",
/* pixels */
"b.b.b.b.b.b.b.b.b.b.b.b.b.b.b.b.b.b.b.b.b.b.b.b.b.b.b.b.b.b.b.b.b.b.b.b.b.b.b.b.b.b.b.b.b.b.b.b.b.b.b.b.b.b.",
"b.b.b.b.b.b.b.b.b.b.b.b.b.b.b.b.b.b.b.b.b.b.b.b.b.b.b.b.b.b.b.b.b.b.b.b.b.b.b.b.b.b.b.b.b.b.b.b.b.b.b.b.b.b.",
"b.b.b.b.b.b.b.b.b.b.b.b.b.b.b.b.b.b.b.b.b.b.b.b.b.b.b.b.b.b.b.b.b.b.b.b.b.b.b.b.b.b.b.b.b.b.b.b.b.b.b.b.b.b.",
"b.b.b.b.b.b.b.b.b.b.b.b.b.b.b.b.b.b.b.b.b.b.b.b.b.b.b.b.b.b.b.b.b.b.b.b.b.b.b.b.b.b.b.b.b.b.b.b.b.b.b.b.b.b.",
"b.b.b.b.b.b.b.b.b.b.b.b.b.b.b.b.b.b.b.b.b.b.b.b.b.b.b.b.b.b.b.b.b.b.b.b.b.b.b.b.b.b.b.b.b.b.b.b.b.b.b.b.b.b.",
"b.b.b.b.b.b.b.b.b.b.b.b.b.b.b.b.b.b.b.b.b.b.b.b.b.b.b.b.b.b.b.b.b.b.b.b.b.b.b.b.b.b.b.b.b.b.b.b.b.b.b.b.b.b.",
"b.b.b.b.b.b.b.b.b.b.b.b.b.b.b.b.b.b.b.b.b.b.b.b.b.b.b.b.b.b.b.b.b.b.b.b.b.b.b.b.b.b.b.b.b.b.b.b.b.b.b.b.b.b.",
"b.b.b.b.b.b.b.b.b.b.b.b.b.b.b.b.b.b.b.b.b.b.b.b.b.b.b.b.b.b.b.b.b.b.b.b.b.b.b.b.b.b.b.b.b.b.b.b.b.b.b.b.b.b.",
"b.b.b.b.b.b.b.b.b.b.b.b.b.b.b.b.b.b.b.b.b.b.b.b.b.b.b.b.b.b.b.b.b.b.b.b.b.b.b.b.b.b.b.b.b.b.b.b.b.b.b.b.b.b.",
"b.b.b.b.b.b.b.b.b.b.b.b.b.b.b.b.b.b.b.b.b.b.b.b.b.b.b.b.b.b.b.b.b.b.b.b.b.b.b.b.b.b.b.b.b.b.b.b.b.b.b.b.b.b.",
"b.b.b.b.b.b.b.b.b.b.b.b.b.b.b.b.b.b.b.b.b.b.b.b.b.b.b.b.b.b.b.b.b.b.b.b.b.b.b.b.b.b.b.b.b.b.b.b.b.b.b.b.b.b.",
"b.b.b.b.b.b.b.b.b.b.b.b.b.b.b.b.b.b.b.b.b.b.b.b.b.b.b.b.b.b.b.b.b.b.b.b.b.b.b.b.b.b.b.b.b.b.b.b.b.b.b.b.b.b.",
"b.b.b.b.b.b.b.b.b.b.b.b.b.b.b.b.b.b.b.b.b.b.b.b.b.b.b.b.b.b.b.b.b.b.b.b.b.b.b.b.b.b.b.b.b.b.b.b.b.b.b.b.b.b.",
"b.b.b.b.b.b.b.b.b.b.b.b.b.b.b.b.b.b.b.b.b.b.b.b.b.b.b.b.b.b.b.b.b.b.b.b.b.b.b.b.b.b.b.b.b.b.b.b.b.b.b.b.b.b.",
"b.b.b.b.b.b.b.b.b.b.b.b.b.b.b.b.b.b.b.b.b.b.b.b.b.b.b.b.b.b.b.b.b.b.b.b.b.b.b.b.b.b.b.b.b.b.b.b.b.b.b.b.b.b.",
"b.b.b.b.b.b.b.b.b.b.b.b.b.b.b.b.b.b.b.b.b.b.b.b.b.b.b.b.b.b.b.b.b.b.b.b.b.b.b.b.b.b.b.b.b.b.b.b.b.b.b.b.b.b.",
"b.b.b.b.b.b.b.b.b.b.b.b.b.b.b.b.b.b.b.b.b.b.b.b.b.b.b.b.b.b.b.b.b.b.b.b.b.b.b.b.b.b.b.b.b.b.b.b.b.b.b.b.b.b.",
"b.b.b.b.b.b.b.b.b.b.b.b.b.b.b.b.b.b.b.b.b.b.b.b.b.b.b.b.b.b.b.b.b.b.b.b.b.b.b.b.b.b.b.b.b.b.b.b.b.b.b.b.b.b.",
"b.b.b.b.b.b.b.b.b.b.b.b.b.b.b.b.b.b.b.b.b.b.b.b.b.b.b.b.b.b.b.b.b.b.b.b.b.b.b.b.b.b.b.b.b.b.b.b.b.b.b.b.b.b.",
"b.b.b.b.b.b.b.b.b.b.b.b.b.b.b.b.b.b.b.b.b.b.b.b.b.b.b.b.b.b.b.b.b.b.b.b.b.b.b.b.b.b.b.b.b.b.b.b.b.b.b.b.b.b.",
"b.b.b.b.b.b.b.b.b.b.b.b.b.b.b.b.b.b.b.b.b.b.b.b.b.b.b.b.b.b.b.b.b.b.b.b.b.b.b.b.b.b.b.b.b.b.b.b.b.b.b.b.b.b.",
"b.b.b.b.b.b.b.b.b.b.b.b.b.b.b.b.b.b.b.b.b.b.b.b.b.b.b.b.b.b.b.b.b.b.b.b.b.b.b.b.b.b.b.b.b.b.b.b.b.b.b.b.b.b.",
"b.b.b.b.b.b.b.b.b.b.b.b.b.b.b.b.b.b.b.b.b.b.b.b.b.b.b.b.b.b.b.b.b.b.b.b.b.b.b.b.b.b.b.b.b.b.b.b.b.b.b.b.b.b.",
"b.b.b.b.b.b.b.b.b.b.b.b.b.b.b.b.b.b.b.b.b.b.b.b.b.b.b.b.b.b.b.b.b.b.b.b.b.b.b.b.b.b.b.b.b.b.b.b.b.b.b.b.b.b.",
"b.b.b.b.b.b.b.b.b.b.b.b.b.b.b.b.b.b.b.b.b.b.b.b.b.b.b.b.b.b.b.b.b.b.b.b.b.b.b.b.b.b.b.b.b.b.b.b.b.b.b.b.b.b.",
"b.b.b.b.b.b.b.b.b.b.b.b.b.b.b.b.b.b.b.b.b.b.b.b.b.b.b.b.b.b.b.b.b.b.b.b.b.b.b.b.b.b.b.b.b.b.b.b.b.b.b.b.b.b.",
"b.b.b.b.b.b.b.b.b.b.b.b.b.b.b.b.b.b.b.b.b.b.b.b.b.b.b.b.b.b.b.b.b.b.b.b.b.b.b.b.b.b.b.b.b.b.b.b.b.b.b.b.b.b.",
"b.b.b.b.b.b.b.b.b.b.b.b.b.b.b.b.b.b.b.b.b.b.b.b.b.b.b.b.b.b.b.b.b.b.b.b.b.b.b.b.b.b.b.b.b.b.b.b.b.b.b.b.b.b.",
"b.b.b.b.b.b.b.b.b.b.b.b.b.b.b.b.b.b.b.b.b.b.b.b.b.b.b.b.b.b.b.b.b.b.b.b.b.b.b.b.b.b.b.b.b.b.b.b.b.b.b.b.b.b.",
"b.b.b.b.b.b.b.b.b.b.b.b.b.b.b.b.b.b.b.b.b.b.b.b.b.b.b.b.b.b.b.b.b.b.b.b.b.b.b.b.b.b.b.b.b.b.b.b.b.b.b.b.b.b.",
"b.b.b.b.b.b.b.b.b.b.b.b.b.b.b.b.b.b.b.b.b.b.b.b.b.b.b.b.b.b.b.b.b.b.b.b.b.b.b.b.b.b.b.b.b.b.b.b.b.b.b.b.b.b.",
"b.b.b.b.b.b.b.b.b.b.b.b.b.b.b.b.b.b.b.b.b.b.b.b.b.b.b.b.b.b.b.b.b.b.b.b.b.b.b.b.b.b.b.b.b.b.b.b.b.b.b.b.b.b.",
"b.b.b.b.b.b.b.b.b.b.b.b.b.b.b.b.b.b.b.b.b.b.b.b.b.b.b.b.b.b.b.b.b.b.b.b.b.b.b.b.b.b.b.b.b.b.b.b.b.b.b.b.b.b.",
"b.b.b.b.b.b.b.b.b.b.b.b.b.b.b.b.b.b.b.b.b.b.b.b.b.b.b.b.b.b.b.b.b.b.b.b.b.b.b.b.b.b.b.b.b.b.b.b.b.b.b.b.b.b.",
"b.b.b.b.b.b.b.b.b.b.b.b.b.b.b.b.b.b.b.b.b.b.b.b.b.b.b.b.b.b.b.b.b.b.b.b.b.b.b.b.b.b.b.b.b.b.b.b.b.b.b.b.b.b.",
"b.b.b.b.b.b.b.b.b.b.b.b.b.b.b.b.b.b.b.b.b.b.b.b.b.b.b.b.b.b.b.b.b.b.b.b.b.b.b.b.b.b.b.b.b.b.b.b.b.b.b.b.b.b.",
"b.b.b.b.b.b.b.b.b.b.b.b.b.b.b.b.b.b.b.b.b.b.b.b.b.b.b.b.b.b.b.b.b.b.b.b.b.b.b.b.b.b.b.b.b.b.b.b.b.b.b.b.b.b.",
"b.b.b.b.b.b.b.b.b.b.b.b.b.b.b.b.b.b.b.b.b.b.b.b.b.b.b.b.b.b.b.b.b.b.b.b.b.b.b.b.b.b.b.b.b.b.b.b.b.b.b.b.b.b.",
"b.b.b.b.b.b.b.b.b.b.b.b.b.b.b.b.b.b.b.b.b.b.b.b.b.b.b.b.b.b.b.b.b.b.b.b.b.b.b.b.b.b.b.b.b.b.b.b.b.b.b.b.b.b.",
"b.b.b.b.b.b.b.b.b.b.b.b.b.b.b.b.b.b.b.b.b.b.b.b.b.b.b.b.b.b.b.b.b.b.b.b.b.b.b.b.b.b.b.b.b.b.b.b.b.b.b.b.b.b.",
"b.b.b.b.b.b.b.b.b.b.b.b.b.b.b.b.b.b.b.b.b.b.b.b.b.b.b.b.b.b.b.b.b.b.b.b.b.b.b.b.b.b.b.b.b.b.b.b.b.b.b.b.b.b.",
"b.b.b.b.b.b.b.b.b.b.b.b.b.b.b.b.b.b.b.b.b.b.b.b.b.b.b.b.b.b.b.b.b.b.b.b.b.b.b.b.b.b.b.b.b.b.b.b.b.b.b.b.b.b.",
"b.b.b.b.b.b.b.b.b.b.b.b.b.b.b.b.b.b.b.b.b.b.b.b.b.b.b.b.b.b.b.b.b.b.b.b.b.b.b.b.b.b.b.b.b.b.b.b.b.b.b.b.b.b.",
"b.b.b.b.b.b.b.b.b.b.b.b.b.b.b.b.b.b.b.b.b.b.b.b.b.b.b.b.b.b.b.b.b.b.b.b.b.b.b.b.b.b.b.b.b.b.b.b.b.b.b.b.b.b.",
"b.b.b.b.b.b.b.b.b.b.b.b.b.b.b.b.b.b.b.b.b.b.b.b.b.b.b.b.b.b.b.b.b.b.b.b.b.b.b.b.b.b.b.b.b.b.b.b.b.b.b.b.b.b.",
"b.b.b.b.b.b.b.b.b.b.b.b.b.b.b.b.b.b.b.b.b.b.b.b.b.b.b.b.b.b.b.b.b.b.b.b.b.b.b.b.b.b.b.b.b.b.b.b.b.b.b.b.b.b.",
"b.b.b.b.b.b.b.b.b.b.b.b.b.b.b.b.b.b.b.b.b.b.b.b.b.b.b.b.b.b.b.b.b.b.b.b.b.b.b.b.b.b.b.b.b.b.b.b.b.b.b.b.b.b.",
"b.b.b.b.b.b.b.b.b.b.b.b.b.b.b.b.b.b.b.b.b.b.b.b.b.b.b.b.b.b.b.b.b.b.b.b.b.b.b.b.b.b.b.b.b.b.b.b.b.b.b.b.b.b.",
"b.b.b.b.b.b.b.b.b.b.b.b.b.b.b.b.b.b.b.b.b.b.b.b.b.b.b.b.b.b.b.b.b.b.b.b.b.b.b.b.b.b.b.b.b.b.b.b.b.b.b.b.b.b.",
"b.b.b.b.b.b.b.b.b.b.b.b.b.b.b.b.b.b.b.b.b.b.b.b.b.b.b.b.b.b.b.b.b.b.b.b.b.b.b.b.b.b.b.b.b.b.b.b.b.b.b.b.b.b.",
"b.b.b.b.b.b.b.b.b.b.b.b.b.b.b.b.b.b.b.b.b.b.b.b.b.b.b.b.b.b.b.b.b.b.b.b.b.b.b.b.b.b.b.b.b.b.b.b.b.b.b.b.b.b.",
"b.b.b.b.b.b.b.b.b.b.b.b.b.b.b.b.b.b.b.b.b.b.b.b.b.b.b.b.b.b.b.b.b.b.b.b.b.b.b.b.b.b.b.b.b.b.b.b.b.b.b.b.b.b.",
"b.b.b.b.b.b.b.b.b.b.b.b.b.b.b.b.b.b.b.b.b.b.b.b.b.b.b.b.b.b.b.b.b.b.b.b.b.b.b.b.b.b.b.b.b.b.b.b.b.b.b.b.b.b.",
"b.b.b.b.b.b.b.b.b.b.b.b.b.b.b.b.b.b.b.b.b.b.b.b.b.b.b.b.b.b.b.b.b.b.b.b.b.b.b.b.b.b.b.b.b.b.b.b.b.b.b.b.b.b.",
"                                                                                                            ",
"                                .                     .     .                                               ",
"                                          . .   . . X X X . . . . .                       .   .           . ",
"                            .       X X X o o @ @ @ @ # @ #   o X o X X X . .                       .       ",
"                              .   X o @ # # % % % % % , > % % $ # # # o o . o . . .                         ",
"        w <.-       .         X @ # % $ > < 5 5 5 5 5 7 7 6 1 1 < , % $ # # @ X o X   .                     ",
"        p.<.h.- <.O     X X o # $ , 1 5 8 c v n v M N C S Z m c c 6 1 , % $ # # o X .   .           .       ",
"        h.  r.q <.w X o o $ $ , < 7 m C R W F V N v C b V S m m P D N c 6 , > $ # @ o X X .                 ",
"    .   r.1.r.w r.e @ # $ % 5 8 m R W I I F A F Y n D C Z A D D A D I P M 8 5 > $ # @ o o X X . .           ",
"        + p.h.h.p.o # > , 6 v F _ I F F G D A A M F D D C N Z V Z D I P E P c 1 > % $ # @ o o X X . . . .   ",
"        . o r t $ # % < 6 v P ( U D V V D A A N V M F P A Z A M n n n D I R T b 1 , > % % # @ X o . o X . . ",
"        1.r * 8.a , < 5 v G S A v v C A V D F A c M m C A m n 7 6 c v b n C G ! n 5 1 < > % # # # # o # X X ",
"        h.X t.y.h.9 6 c P G G F A A F A C N N m V v 8 7 8 c 7 7 7 v c 8 7 c N C Q V M 5 < , % % $ $ $ # @ # ",
"  .   . p.p.p.< 9.h 8 D M V Z A N V A D A v v C c v 8 7 b N 8 V 5 N n 6 8 c 7 8 c _ D c 7 1 1 1 , < , $ @ o ",
"  .   o & 2.y 4 h.H D M v M A c V V D A A C V m 7 6 7 c c A v b 7 7 c b m 8 n n N A ! D m c c 7 5 1 , $ # o ",
"  w ,.@ t % > 5 B P _ A N A I M A C D P M D A M N b 8 8 7 8 6 v 7 7 7 n V v c m V A N W N b c M c 5 1 % $ # ",
"  >.p.> h.h.d.0.x { E C A M D Y D D m C R F C A M V m n 8 c b c m 7 6 v v m v M M D V I P D A D V c 5 < % # ",
"  o # , h.g z e.g.*.` I S G U ] Q F b b v V D V Z N V A n N v c c m v 8 7 c m A A A D W ..Q G G D v c 1 > $ ",
"X # $ , 5 c S I @.D T F G F Y ` W l.V c V V V m Z V N c 8 6 c c 6 A M v c c c v C Z P G _ Q R ! G C m 6 , % ",
"X # = d.d.k ' Q +.K G E _ P Y Q W ..V 7 7 7 m D N A Z v N 7 8 6 M V Z H 6 7 C V D m D R ] | _ ( U D M 7 1 > ",
"# # 3.0.l f.^ a.h.o.U P ' #.W ( ` D c 8 8 7 N A M S m 7 c V C n M Z V N m 5 n D P I C F ] =.X.! E D C c 5 , ",
"o $ 9.f c e.h.s. .T D P ! ! R P m c 8 7 m 8 S D I Z c 8 7 n F C C M m N m c 8 c V P F R W | $._ Q F N 7 5 < ",
"@ $ 9.u.w.a.j...( Q U P P [ Z V n c n 6 M n D D V C D S 8 M A E W I D V Z M n v c M T E $.( c.[ Q F v 7 1 , ",
"@ % 0 5.e.h.h.h.g.L U P ~ D C N v 8 P D c V D V v 8 c 7 F M F A I F I A M D m v C G P %.R Q v.| ! F N 7 1 % ",
"# , 1 7 n I / x.7.J I W ) @.I M N Z n D M U } b 8 c c v C A D U A [ W G Z V A A F k.) Q ) ` &.[ ] P m 6 , $ ",
"% > < 6 N U ( _ P G T _ $.W N C V b C V 8 n A Z C S D U R I U Q ..[ $.E D I F N I ! @...=.[ | Q R D n 6 < % ",
"> , 1 7 n Z U ! V A I Y T V N m v P N 8 N Y D G C Q M v I D R X.~ @.R A m G F A D F ) ! =.) _ R Z n n 7 < > ",
", 5 6 7 8 M T E F F D P V M c c 8 v c c v 8 Z n A U Z V P E E ! Q I N c M F I D _ A D W I U _ R Z c 8 7 1 % ",
", 6 6 8 8 b P T P U Z V V C c m M c v c n 8 7 c A v 7 8 c D Z R Z c c v A R P V P Z D P F Z ( D D c 8 7 1 $ ",
"< 6 6 6 c n I ! F Q Q G P Z C D N n 8 7 M c N v 8 7 8 8 n 8 M S m n P Z I U E G R F A F D F ` D M t 6 7 5 % ",
"6 7 7 8 c G U ! R ~ W T ) W ! Q P C n m n c c M c v b 7 c c V N F 4 Q Y ~ G R U T I F P P F ' P Z 8 7 7 5 % ",
"5 7 c v m D T ~ _ ! _ ) @.R X.I A M M V n v S P F C M c n n Z V F M Q P Q ! U W F I G | D Q } E A v 8 5 5 < ",
"1 6 8 n n D I ! ' ..) @.=.Q ) D v v v S E G R D F A G N C D D Y F A Z ' Q ` P D G P F A G ] ) D C c 7 1 < < ",
"1 = 6 n n D P W ~ ;._ -.] Q E c v 8 V P T | I Y ~ E e.Q ' E C U W ( D I R V F G F T T F E [ W M c 8 7 5 < < ",
", 1 9 8 q.m C P ' ` ' W ` I m v 6 c Z G ] @.X.U ) _ _ ! z.R F [ ~ ! D N D n Z V D I I [ ! Q U v c 6 1 < > # ",
"> < f u.h.h v F a.O.] I m S m c c v F ( @.#.W F E F E ` ! D Q U Q I G A D A I F D C M P ` W S W 6 < < % $ X ",
"$ > < 4.h.h.h.i.h.O.E M C n v 7 c c V Y [ | T P F R _ Q E _ U Q U Y Q Z A A V C N Z C W Q R M 7 < % % X     ",
"# % > < 4.6 g 5.6.P F V N c N b 8 v A I ) E T D P F U _ E R W U W _ A n m c v S m F D ` R A 8 5 , $ # X     ",
"@ $ % > 3 d Q 6 m A Y D Q V c c n m A T T R P U F R P A R ! C W C S M c v c c c 8 C P P V 8 < > $ # X       ",
"# $ $ % y.h.d.9 j m V E D F N M A G I E F I ! U D F P I Q W U C b m N 8 8 8 A A m S S n 8 < % o X . .       ",
"o @ # $ h.$ d.f u.g 7 V R T ! U D R I A I ( P M v A G Y R F D Z N N c M M N Z S S v 6 5 < > # X             ",
"X # @ # p.y 9.f 9.d 5 c A ! G U I P N b A D N A b N D D A N b 8 c 8 C m v n A D C 5 < > $ # o       .       ",
"X o X o r h.h.y.h.2 , 5 b F U D n b n c n N n M D A A V V m v 8 8 8 8 c c C P F 7 < % # @ o .               ",
". . o o # : 2.8.: % > , 5 c n P A v c n 8 8 M C D N N V A v M M C D N M D R N c , % # X   .           .     ",
"  . >.r # % p 2.; $ $ > 1 = 6 v N P v b c c c c N C A F Z S D D D F U G n 8 5 , % @ . .   o                 ",
". X 1.e o y p.1.h.& # # > , < 5 7 c Z P Y G G D D C F A F F P U R ( P c 1 < > # @ o .                       ",
"  . >.1.i h.e p.1.r @ # $ % > < 1 1 8 v N F P U E E z W ! W W T G N 8 5 < > # o . .                         ",
"    O r.h.:.  . 1.e o @ # $ $ % > > < 5 6 7 7 8 v n V N N v c c 7 5 , $ $ o X .                     .       ",
"  .   .       . u . X o o @ # # $ $ > , , < , < < 5 5 1 5 < < > % % # # o .                                 ",
"          .   .   . X . X o o o @ # # $ % $ $ # $ % , $ %   $ #     X   .                 .                 ",
"            .     . . . X X X o o o # # # # # # o # # # @   o X     .                       .               ",
"      .                 .     . X X o o X @ o X   X X X X   . .                                             ",
"                  .         . . . . X o X X X X   . . .                   .                                 ",
"                                  .   . . . . .             .                     .                         "
};
